ACES20_P3D65PQ1000_to_sRGB22.cube
TITLE "Generated by Resolve"
LUT_3D_SIZE 9
0 0 0
0.0955673 0.0103761 0.0151217
0.25478 0.0286564 0.0403449
0.502403 0.0644236 0.0849928
0.840665 0.118181 0.151186
1 0.392096 0.359869
1 0.654063 0.618433
1 0.670558 0.640177
1 0.670558 0.640177
0.0099794 0.0854047 0.0247501
0.0854963 0.0880293 0.0083772
0.249928 0.0835431 0.0227054
0.505501 0.073579 0.0715801
0.842191 0.123964 0.147311
1 0.394247 0.359228
1 0.65478 0.618952
1 0.671214 0.640681
1 0.671214 0.640681
0.027451 0.230579 0.0680247
0.0469368 0.233631 0.0266728
0.227787 0.234531 0.0246738
0.483482 0.227344 0.0553445
0.853407 0.176776 0.115602
1 0.409155 0.361532
1 0.660426 0.62327
1 0.676295 0.644724
1 0.676295 0.644724
0.0577554 0.450568 0.143099
0.0640574 0.451484 0.130388
0.174716 0.455573 0.0628672
0.438834 0.451804 0.0626383
0.792737 0.421973 0.114687
1 0.47219 0.3682
1 0.685069 0.642618
1 0.698192 0.662669
1 0.698192 0.662669
0.0839857 0.713146 0.248676
0.0926986 0.714092 0.240909
0.117998 0.720745 0.20238
0.329244 0.726619 0.123095
0.686107 0.70634 0.1299
1 0.66247 0.379858
1 0.750927 0.689632
1 0.761898 0.713726
1 0.761898 0.713726
0.140047 0.974136 0.362753
0.144366 0.974609 0.360525
0.165759 0.977691 0.347387
0.237507 0.986038 0.307622
0.502083 0.983307 0.249332
0.906554 0.933181 0.239628
1 0.888289 0.791226
1 0.889677 0.816083
1 0.889677 0.816083
0.837797 1 0.841291
0.837919 1 0.841352
0.838895 1 0.841749
0.843076 1 0.843488
0.858305 1 0.849546
0.90724 1 0.869734
0.999557 1 0.930449
0.999207 1 0.92105
0.999207 1 0.92105
0.844221 1 0.851972
0.844373 1 0.852064
0.845563 1 0.852811
0.850599 1 0.855985
0.865232 1 0.864332
0.908293 1 0.886519
0.995163 1 0.922728
0.998535 1 0.928008
0.998535 1 0.928008
0.844221 1 0.851972
0.844373 1 0.852064
0.845563 1 0.852811
0.850599 1 0.855985
0.865232 1 0.864332
0.908293 1 0.886519
0.995163 1 0.922728
0.998535 1 0.928008
0.998535 1 0.928008
0.00363165 0.0327764 0.123812
0.0945449 0.0122225 0.0929274
0.246677 0.0313268 0.0957351
0.496406 0.0663462 0.105104
0.848249 0.108461 0.164401
1 0.391226 0.364019
1 0.65388 0.619181
1 0.670832 0.641154
1 0.670832 0.641154
0.0162356 0.0863966 0.0880293
0.0848707 0.0873732 0.091371
0.252781 0.0724804 0.0838331
0.494972 0.0806897 0.09337
0.842283 0.122911 0.156252
1 0.393347 0.362844
1 0.654429 0.619425
1 0.671458 0.641398
1 0.671458 0.641398
0.0315862 0.230259 0.113375
0.0537118 0.232059 0.0986648
0.226612 0.232517 0.0668956
0.483864 0.224186 0.0709239
0.853681 0.175677 0.122805
1 0.408576 0.363577
1 0.659571 0.622797
1 0.67657 0.644678
1 0.67657 0.644678
0.055375 0.451469 0.163348
0.0704356 0.450538 0.149371
0.163363 0.455589 0.0770733
0.438193 0.45069 0.0768749
0.794537 0.420966 0.120729
1 0.471717 0.370306
1 0.68426 0.64213
1 0.698619 0.662791
1 0.698619 0.662791
0.0803388 0.712856 0.257557
0.0895552 0.713817 0.249531
0.122621 0.720485 0.208576
0.327626 0.72697 0.128878
0.686213 0.706279 0.134539
1 0.662501 0.381857
1 0.750622 0.689586
1 0.762219 0.713695
1 0.762219 0.713695
0.137774 0.973938 0.36582
0.142046 0.974411 0.363607
0.169223 0.977707 0.348867
0.24097 0.985885 0.309957
0.503258 0.983093 0.252872
0.906554 0.93315 0.24242
1 0.888228 0.791379
1 0.889845 0.816052
1 0.889845 0.816052
0.837949 1 0.841566
0.838056 1 0.841535
0.839002 1 0.84184
0.843183 1 0.843565
0.858427 1 0.849622
0.907347 1 0.869764
0.999557 1 0.930175
0.999207 1 0.921202
0.999207 1 0.921202
0.844312 1 0.852125
0.84445 1 0.852155
0.845624 1 0.852842
0.850675 1 0.856031
0.865278 1 0.864317
0.908339 1 0.886412
0.995178 1 0.922835
0.998535 1 0.9281
0.998535 1 0.9281
0.844312 1 0.852125
0.84445 1 0.852155
0.845624 1 0.852857
0.850675 1 0.856031
0.865278 1 0.864317
0.908339 1 0.886412
0.995178 1 0.922835
0.998535 1 0.9281
0.998535 1 0.9281
0.0126955 0.0878767 0.324865
0.0700542 0.0298619 0.310643
0.251164 0.033875 0.246815
0.491936 0.0680705 0.245014
0.846006 0.107973 0.222248
1 0.390539 0.380911
1 0.654169 0.625666
1 0.673991 0.649409
1 0.673991 0.649409
0.0306859 0.0965286 0.233921
0.0777905 0.0775769 0.255604
0.250385 0.0671244 0.248173
0.491829 0.0814527 0.242649
0.841382 0.120104 0.222812
1 0.39202 0.380194
1 0.654505 0.625681
1 0.674464 0.649531
1 0.674464 0.649531
0.0362402 0.231342 0.235782
0.0584878 0.231907 0.237293
0.224338 0.230167 0.239536
0.492744 0.210636 0.227924
0.848585 0.179324 0.208209
1 0.405356 0.378912
1 0.657938 0.626856
1 0.678645 0.651347
1 0.678645 0.651347
0.0501411 0.450172 0.264759
0.0691691 0.449317 0.260655
0.141802 0.453864 0.226383
0.434913 0.446036 0.200504
0.808331 0.413046 0.182925
1 0.46772 0.386343
1 0.679667 0.641459
1 0.697917 0.664378
1 0.697917 0.664378
0.042298 0.713069 0.304646
0.0592966 0.713268 0.30074
0.12987 0.718425 0.267414
0.30161 0.731472 0.173037
0.686717 0.705699 0.175311
1 0.660441 0.398489
1 0.749065 0.691768
1 0.764462 0.717052
1 0.764462 0.717052
0.121721 0.972625 0.387198
0.125841 0.973053 0.385275
0.156725 0.97644 0.37084
0.252964 0.984909 0.33022
0.505806 0.982391 0.277043
0.906767 0.932982 0.259419
1 0.887877 0.79321
1 0.890852 0.81709
1 0.890852 0.81709
0.838712 1 0.843473
0.838926 1 0.843549
0.840116 1 0.843671
0.844144 1 0.844541
0.859388 1 0.850477
0.908034 1 0.870237
0.999481 1 0.928328
0.999222 1 0.922393
0.999222 1 0.922393
0.84506 1 0.85362
0.845197 1 0.853651
0.846296 1 0.853956
0.851301 1 0.85658
0.865797 1 0.864637
0.908721 1 0.885893
0.995239 1 0.923644
0.998611 1 0.928771
0.998611 1 0.928771
0.84506 1 0.85362
0.845197 1 0.853651
0.846296 1 0.853941
0.851301 1 0.85658
0.865797 1 0.864637
0.908705 1 0.885893
0.995239 1 0.923644
0.998611 1 0.928771
0.998611 1 0.928771
0.0376898 0.15375 0.574365
0.0398108 0.128542 0.581155
0.226276 0.0675517 0.549645
0.491218 0.076936 0.482963
0.829541 0.116152 0.45214
1 0.391257 0.442008
1 0.658198 0.638865
1 0.680064 0.662394
1 0.680064 0.662394
0.0485084 0.149432 0.526253
0.0517433 0.127138 0.538735
0.229938 0.0834974 0.529397
0.490623 0.0869306 0.482383
0.827237 0.126879 0.452491
1 0.392752 0.443046
1 0.658488 0.638987
1 0.680598 0.662745
1 0.680598 0.662745
0.0598611 0.241245 0.468956
0.0770123 0.239673 0.467979
0.215305 0.219104 0.498512
0.484123 0.202899 0.482811
0.83537 0.180835 0.45037
1 0.40618 0.448722
1 0.661326 0.640558
1 0.685039 0.66601
1 0.685039 0.66601
0.0556344 0.449165 0.457862
0.0746471 0.448325 0.457328
0.149355 0.44831 0.460166
0.430289 0.439429 0.454154
0.785489 0.41677 0.438346
1 0.464439 0.453056
1 0.67834 0.653544
1 0.702831 0.680827
1 0.702831 0.680827
0.045655 0.710506 0.446937
0.0622263 0.710536 0.44686
0.13637 0.71339 0.441566
0.312001 0.722286 0.412909
0.680522 0.69691 0.407568
1 0.655253 0.46453
1 0.751431 0.711147
1 0.765667 0.731243
1 0.765667 0.731243
0.0196994 0.970626 0.435233
0.0399176 0.970947 0.434684
0.0983597 0.973541 0.430426
0.230274 0.982544 0.409812
0.49691 0.981567 0.362829
0.906752 0.931487 0.327276
1 0.887098 0.804318
1 0.892958 0.826795
1 0.892958 0.826795
0.840696 1 0.85008
0.840848 1 0.850111
0.8421 1 0.850416
0.848127 1 0.852613
0.863233 1 0.856977
0.910185 1 0.87451
0.998993 1 0.923674
0.999252 1 0.927153
0.999252 1 0.927153
0.850431 1 0.862776
0.850492 1 0.862745
0.851102 1 0.862684
0.854887 1 0.86363
0.869795 1 0.870344
0.910597 1 0.889113
0.995483 1 0.927031
0.998932 1 0.931624
0.998932 1 0.931624
0.850431 1 0.862776
0.850492 1 0.862745
0.851102 1 0.862669
0.854887 1 0.86363
0.869795 1 0.870344
0.910597 1 0.889113
0.995483 1 0.927031
0.998932 1 0.931624
0.998932 1 0.931624
0.0830091 0.239506 0.900252
0.0849165 0.230701 0.906981
0.168688 0.185901 0.92755
0.44918 0.164721 0.87747
0.804013 0.15378 0.790722
1 0.40209 0.659525
1 0.67013 0.687922
1 0.69131 0.700969
1 0.69131 0.700969
0.0895857 0.242283 0.888716
0.0915084 0.233875 0.895705
0.173877 0.193606 0.916411
0.449775 0.174044 0.871717
0.804181 0.158923 0.790906
1 0.403876 0.66009
1 0.670436 0.688029
1 0.691875 0.701411
1 0.691875 0.701411
0.121019 0.281392 0.83949
0.126864 0.275868 0.841566
0.187396 0.24567 0.873594
0.448936 0.231601 0.850965
0.805463 0.198962 0.793683
1 0.417624 0.662974
1 0.673289 0.689219
1 0.696452 0.704875
1 0.696452 0.704875
0.0977493 0.436683 0.794003
0.107622 0.438087 0.790234
0.168978 0.437812 0.796033
0.416236 0.4262 0.802335
0.766064 0.406149 0.763867
1 0.472953 0.667002
1 0.68957 0.697032
1 0.714168 0.716213
1 0.714168 0.716213
0.0602121 0.70396 0.718151
0.0739452 0.703899 0.718059
0.145098 0.704356 0.719127
0.320516 0.704204 0.722408
0.671656 0.681712 0.697902
1 0.654734 0.673945
1 0.74316 0.72845
1 0.761379 0.747066
1 0.761379 0.747066
0.0637675 0.96437 0.624781
0.0723888 0.964538 0.625055
0.119188 0.965957 0.626596
0.244648 0.971252 0.625574
0.542153 0.954543 0.627497
0.890639 0.909697 0.620691
1 0.886397 0.83154
1 0.891737 0.847837
1 0.891737 0.847837
0.851011 1 0.867353
0.851102 1 0.867399
0.851911 1 0.86775
0.856138 1 0.87013
0.872389 1 0.879271
0.912566 1 0.891157
0.997055 1 0.934539
0.999512 1 0.940505
0.999512 1 0.940505
0.888869 1 0.899428
0.888899 1 0.899443
0.889189 1 0.899687
0.892882 1 0.902831
0.890455 1 0.900587
0.91725 1 0.905592
0.99617 1 0.938186
0.999252 1 0.944244
0.999252 1 0.944244
0.888869 1 0.899428
0.888899 1 0.899443
0.889189 1 0.899687
0.892882 1 0.902815
0.890455 1 0.900587
0.91725 1 0.905592
0.99617 1 0.938186
0.999252 1 0.944244
0.999252 1 0.944244
0.398779 0.489647 1
0.400305 0.489433 1
0.412238 0.487846 1
0.467918 0.483787 1
0.668284 0.478614 1
1 0.467277 0.984207
1 0.710933 0.826993
1 0.728023 0.829129
1 0.728023 0.829129
0.398795 0.490257 1
0.400336 0.490043 1
0.41236 0.488502 1
0.468208 0.484565 1
0.668421 0.479744 1
1 0.468544 0.983948
1 0.711269 0.8271
1 0.728542 0.829404
1 0.728542 0.829404
0.399619 0.496086 1
0.401236 0.495918 1
0.413687 0.494667 1
0.470527 0.491356 1
0.668482 0.489036 1
1 0.477623 0.983459
1 0.714153 0.828031
1 0.732677 0.831418
1 0.732677 0.831418
0.418433 0.543145 1
0.418006 0.541344 1
0.423972 0.534661 0.999954
0.476371 0.531121 1
0.667216 0.529397 0.999329
1 0.513298 0.986679
1 0.72903 0.833036
1 0.752804 0.840528
1 0.752804 0.840528
0.418265 0.668727 1
0.419196 0.669245 1
0.428473 0.672389 0.999054
0.483558 0.675929 0.994049
0.653422 0.669123 0.993271
0.986969 0.646067 0.97969
1 0.778912 0.850874
1 0.797559 0.857466
1 0.797559 0.857466
0.100343 0.93872 0.958541
0.105562 0.938766 0.958556
0.139803 0.939086 0.958663
0.24773 0.939513 0.959396
0.541161 0.922072 0.94229
0.875319 0.883696 0.8972
1 0.892882 0.897078
1 0.896345 0.898955
1 0.896345 0.898955
0.872023 1 0.913237
0.872114 1 0.913283
0.872923 1 0.913634
0.876829 1 0.914992
0.891752 1 0.919264
0.925765 1 0.932662
0.997925 1 0.964065
1 1 0.97171
1 1 0.97171
0.917433 1 0.930449
0.917662 1 0.930587
0.919341 1 0.93164
0.929503 1 0.938399
0.958251 1 0.96144
0.98735 1 0.987762
0.997528 1 0.969116
0.999695 1 0.975921
0.999695 1 0.975921
0.917433 1 0.930449
0.917662 1 0.930587
0.919341 1 0.93164
0.929503 1 0.938399
0.958236 1 0.96144
0.98735 1 0.987762
0.997528 1 0.969116
0.999695 1 0.975921
0.999695 1 0.975921
0.638987 0.699443 1
0.639323 0.699474 1
0.641886 0.699672 1
0.653101 0.700618 1
0.698482 0.707942 1
0.836301 0.742351 1
1 0.823041 0.989425
1 0.831037 0.983154
1 0.831037 0.983154
0.639307 0.69984 1
0.639643 0.69987 1
0.642206 0.700069 1
0.653422 0.701015 1
0.698772 0.708339 1
0.836515 0.742626 1
1 0.823331 0.989441
1 0.83125 0.983139
1 0.83125 0.983139
0.641794 0.702907 1
0.64213 0.702937 1
0.644694 0.703151 1
0.655894 0.704143 1
0.701152 0.712383 1
0.837858 0.745449 1
1 0.825727 0.989578
1 0.833631 0.983368
1 0.833631 0.983368
0.660548 0.724483 1
0.660441 0.724102 1
0.660868 0.722377 1
0.67071 0.723018 1
0.71191 0.73106 1
0.841627 0.761883 1
1 0.837171 0.990967
1 0.844923 0.985
1 0.844923 0.985
0.725567 0.791226 1
0.725719 0.791211 1
0.726024 0.790463 1
0.732631 0.791257 1
0.76109 0.797757 1
0.85713 0.818524 1
1 0.879606 0.99646
1 0.888884 0.992432
1 0.888884 0.992432
0.789364 0.875059 1
0.789609 0.875135 1
0.791562 0.875807 1
0.801892 0.878538 1
0.846006 0.895735 1
0.935012 0.945281 1
1 1 1
1 0.926085 0.992065
1 0.926085 0.992065
0 0 0
0 0 0
0.900099 1 0.999329
0.903441 1 0.999405
0.914687 1 0.999603
0.947417 1 0.999893
1 1 1
1 1 1
1 1 1
0.904814 1 0.998383
0.904906 1 0.998398
0.905684 1 0.998413
0.908965 1 0.998474
0.919966 1 0.998703
0.951278 1 0.999298
1 1 1
1 1 1
1 1 1
0.904814 1 0.998383
0.904906 1 0.998398
0.905684 1 0.998413
0.908965 1 0.998474
0.919966 1 0.998703
0.951278 1 0.999298
1 1 1
1 1 1
1 1 1
0.638987 0.699443 1
0.639323 0.699474 1
0.641886 0.699672 1
0.653101 0.700618 1
0.698482 0.707942 1
0.836301 0.742351 1
1 0.823041 0.989425
1 0.831037 0.983154
1 0.831037 0.983154
0.639307 0.69984 1
0.639643 0.69987 1
0.642206 0.700069 1
0.653422 0.701015 1
0.698772 0.708339 1
0.836515 0.742626 1
1 0.823331 0.989441
1 0.83125 0.983139
1 0.83125 0.983139
0.641794 0.702907 1
0.64213 0.702937 1
0.644694 0.703151 1
0.655894 0.704143 1
0.701152 0.712383 1
0.837858 0.745449 1
1 0.825727 0.989578
1 0.833631 0.983368
1 0.833631 0.983368
0.660548 0.724483 1
0.660441 0.724102 1
0.660868 0.722377 1
0.670726 0.723018 1
0.71191 0.73106 1
0.841627 0.761883 1
1 0.837171 0.990967
1 0.844923 0.985
1 0.844923 0.985
0.725567 0.791226 1
0.725719 0.791211 1
0.726024 0.790463 1
0.732631 0.791257 1
0.76109 0.797757 1
0.85713 0.818524 1
1 0.879606 0.99646
1 0.888884 0.992432
1 0.888884 0.992432
0.789364 0.875059 1
0.789609 0.875135 1
0.791562 0.875807 1
0.801892 0.878538 1
0.846006 0.895735 1
0.935012 0.945281 1
1 1 1
1 0.926085 0.992065
1 0.926085 0.992065
0 0 0
0 0 0
0.900099 1 0.999329
0.903441 1 0.999405
0.914687 1 0.999603
0.947417 1 0.999893
1 1 1
1 1 1
1 1 1
0.904814 1 0.998383
0.904906 1 0.998398
0.905684 1 0.998413
0.908965 1 0.998474
0.919966 1 0.998703
0.951278 1 0.999298
1 1 1
1 1 1
1 1 1
0.904814 1 0.998383
0.904906 1 0.998398
0.905684 1 0.998413
0.908965 1 0.998474
0.919966 1 0.998703
0.951278 1 0.999298
1 1 1
1 1 1
1 1 1
0.638987 0.699443 1
0.639323 0.699474 1
0.641886 0.699672 1
0.653101 0.700618 1
0.698482 0.707942 1
0.836301 0.742351 1
1 0.823041 0.989425
1 0.831037 0.983154
1 0.831037 0.983154
0.639307 0.69984 1
0.639643 0.69987 1
0.642206 0.700069 1
0.653422 0.701015 1
0.698772 0.708339 1
0.836515 0.742626 1
1 0.823331 0.989441
1 0.83125 0.983139
1 0.83125 0.983139
0.641794 0.702907 1
0.64213 0.702937 1
0.644694 0.703151 1
0.655894 0.704143 1
0.701152 0.712383 1
0.837858 0.745449 1
1 0.825711 0.989578
1 0.833616 0.983368
1 0.833631 0.983368
0.660548 0.724483 1
0.660441 0.724102 1
0.660868 0.722377 1
0.67071 0.723018 1
0.71191 0.73106 1
0.841627 0.761883 1
1 0.837171 0.990967
1 0.844923 0.985
1 0.844923 0.985
0.725567 0.791226 1
0.725719 0.791211 1
0.726024 0.790463 1
0.732631 0.791257 1
0.76109 0.797757 1
0.85713 0.818524 1
1 0.879606 0.99646
1 0.888884 0.992432
1 0.888884 0.992432
0.789364 0.875059 1
0.789609 0.875135 1
0.791562 0.875807 1
0.801892 0.878538 1
0.846021 0.895735 1
0.935012 0.945281 1
1 1 1
1 0.926085 0.992065
1 0.926085 0.992065
0 0 0
0 0 0
0.900099 1 0.999329
0.903441 1 0.999405
0.914687 1 0.999603
0.947417 1 0.999893
1 1 1
1 1 1
1 1 1
0.904814 1 0.998383
0.904906 1 0.998398
0.905684 1 0.998413
0.908965 1 0.998474
0.919966 1 0.998703
0.951278 1 0.999298
1 1 1
1 1 1
1 1 1
0.904814 1 0.998383
0.904906 1 0.998398
0.905684 1 0.998413
0.908965 1 0.998474
0.919966 1 0.998703
0.951278 1 0.999298
1 1 1
1 1 1
1 1 1
