ACES20_P3D65PQ1000_to_sRGBPW.cube
TITLE "Generated by Resolve"
LUT_3D_SIZE 33
0 0 0
0.00260929 3.0518e-05 6.10361e-05
0.0121614 0.000106813 0.000244144
0.0331579 0.000259403 0.000640879
0.0662242 0.000503548 0.00131228
0.103517 0.0009308 0.00242618
0.145144 0.00163272 0.00422675
0.191455 0.00280766 0.00704967
0.242725 0.0047303 0.0113222
0.299138 0.0077821 0.0176852
0.360754 0.0124056 0.0268406
0.427588 0.0191196 0.0396582
0.499535 0.0284886 0.0552224
0.576394 0.0411994 0.0720836
0.658015 0.0560922 0.0902724
0.744167 0.0724498 0.109834
0.83389 0.0892805 0.130236
0.928649 0.109316 0.153399
0.993133 0.198199 0.208209
1 0.299916 0.281117
1 0.381064 0.349004
1 0.451438 0.413092
1 0.516472 0.475837
1 0.580346 0.540276
1 0.648173 0.611765
1 0.653132 0.617517
1 0.653132 0.617517
1 0.653132 0.617517
1 0.653132 0.617517
1 0.653132 0.617517
1 0.653132 0.617517
1 0.653132 0.617517
1 0.653132 0.617517
1.5259e-05 0.00195315 0.000122072
0.00205997 0.00209049 1.5259e-05
0.0110781 0.00204471 7.62951e-05
0.0327306 0.00134279 0.000167849
0.0667887 0.000823987 0.000564584
0.103807 0.0011902 0.00169375
0.145342 0.00187686 0.00349432
0.191592 0.0030518 0.00630198
0.242832 0.0049897 0.010605
0.299229 0.0080415 0.016968
0.360845 0.0126802 0.026154
0.42768 0.0194095 0.0390173
0.499611 0.0287938 0.0547341
0.576471 0.0415045 0.0717174
0.658091 0.0563516 0.0899977
0.744244 0.072694 0.109636
0.833951 0.0894942 0.130083
0.928603 0.109682 0.153216
0.993057 0.198459 0.208087
1 0.300038 0.281041
1 0.381155 0.348959
1 0.451499 0.413077
1 0.516518 0.475853
1 0.580377 0.540307
1 0.648188 0.61178
1 0.653147 0.617548
1 0.653147 0.617548
1 0.653147 0.617548
1 0.653147 0.617548
1 0.653147 0.617548
1 0.653147 0.617548
1 0.653147 0.617548
1 0.653147 0.617548
9.15541e-05 0.00921645 0.000503548
0.0015259 0.0096437 6.10361e-05
0.0096437 0.00981155 4.57771e-05
0.0285801 0.00999466 0.00015259
0.0624552 0.00935378 0.000335698
0.102037 0.007187 0.000564584
0.146365 0.00387579 0.000915541
0.192782 0.00415045 0.00352483
0.243641 0.00602731 0.00791943
0.299809 0.00906386 0.014374
0.361303 0.0137179 0.0236667
0.428046 0.0204776 0.0366522
0.499916 0.0299229 0.0529183
0.576761 0.0426337 0.0703593
0.658351 0.0573434 0.0889754
0.744472 0.0735637 0.108888
0.834165 0.0902876 0.129549
0.928557 0.110826 0.152636
0.992813 0.19939 0.207675
1 0.300496 0.280781
1 0.38143 0.348852
1 0.451698 0.413062
1 0.516655 0.475883
1 0.580499 0.540368
1 0.64828 0.611826
1 0.653239 0.617609
1 0.653239 0.617609
1 0.653239 0.617609
1 0.653239 0.617609
1 0.653239 0.617609
1 0.653239 0.617609
1 0.653239 0.617609
1 0.653239 0.617609
0.000259403 0.02533 0.00128176
0.000518807 0.0262608 0.000167849
0.00854505 0.0264744 0.00015259
0.0263676 0.0268559 0.000122072
0.057969 0.0273747 0.000259403
0.0964675 0.026978 0.000595102
0.140444 0.024506 0.00102235
0.189822 0.018967 0.00166323
0.244602 0.0115663 0.00268559
0.301534 0.0117189 0.00836194
0.362646 0.0162966 0.0180362
0.429053 0.0230411 0.0313573
0.50074 0.032517 0.0487526
0.577447 0.0451514 0.0672923
0.658946 0.0595254 0.086717
0.744991 0.0754864 0.107225
0.834653 0.0920272 0.128359
0.928862 0.112657 0.151751
0.992462 0.201251 0.207034
1 0.301472 0.280354
1 0.382055 0.348653
1 0.45214 0.413031
1 0.516991 0.475959
1 0.580758 0.540505
1 0.648493 0.611978
1 0.653452 0.617761
1 0.653452 0.617761
1 0.653452 0.617761
1 0.653452 0.617761
1 0.653452 0.617761
1 0.653452 0.617761
1 0.653452 0.617761
1 0.653452 0.617761
0.000518807 0.0537575 0.00267033
0.000701915 0.05449 0.00154116
0.00669871 0.0553445 0.000335698
0.0244297 0.0556802 0.00030518
0.055375 0.0562142 0.000228885
0.0921645 0.0569924 0.000457771
0.134737 0.0569162 0.000991836
0.183444 0.0546731 0.00178531
0.238148 0.0487373 0.00291447
0.298711 0.0371405 0.00462348
0.364736 0.0234531 0.00743114
0.43125 0.0286107 0.021149
0.50248 0.0379339 0.0400854
0.57882 0.049958 0.0611887
0.660105 0.0636301 0.0823377
0.745998 0.079057 0.104097
0.835569 0.0952468 0.126131
0.929625 0.115709 0.150286
0.992325 0.204135 0.206622
1 0.303136 0.279957
1 0.383185 0.348486
1 0.452934 0.413092
1 0.517586 0.476158
1 0.581231 0.54078
1 0.648875 0.612268
1 0.653834 0.618051
1 0.653834 0.618051
1 0.653834 0.618051
1 0.653834 0.618051
1 0.653834 0.618051
1 0.653834 0.618051
1 0.653834 0.618051
1 0.653834 0.618051
0.000961318 0.0877089 0.005066
0.00114443 0.0881666 0.00392157
0.00363165 0.0894331 0.000640879
0.0213169 0.089662 0.000610361
0.0527504 0.090013 0.000549325
0.0894942 0.0906081 0.000442512
0.130449 0.0913863 0.000793469
0.177539 0.0914778 0.00164797
0.231266 0.089662 0.0030518
0.291524 0.0845045 0.00497444
0.357992 0.0741283 0.0077821
0.430182 0.0585336 0.0121462
0.506081 0.0457313 0.0220798
0.581445 0.0585336 0.0493782
0.662181 0.0708324 0.0743267
0.747692 0.0852522 0.098497
0.83711 0.100801 0.122271
0.930877 0.120974 0.147814
0.992279 0.208743 0.206256
1 0.30573 0.279988
1 0.384955 0.348669
1 0.454246 0.413397
1 0.518593 0.476585
1 0.58204 0.541268
1 0.649531 0.612757
1 0.654475 0.618524
1 0.654475 0.618524
1 0.654475 0.618524
1 0.654475 0.618524
1 0.654475 0.618524
1 0.654475 0.618524
1 0.654475 0.618524
1 0.654475 0.618524
0.00170901 0.125719 0.00898756
0.0018616 0.126024 0.00784314
0.00260929 0.127092 0.00357061
0.0163424 0.127764 0.00112917
0.0484321 0.127993 0.00108339
0.0865797 0.128344 0.000991836
0.12755 0.128939 0.000808728
0.173037 0.12961 0.00141909
0.225055 0.129656 0.00274662
0.284077 0.127901 0.005066
0.350057 0.122896 0.00813306
0.422431 0.113207 0.0127108
0.500847 0.0970626 0.0191958
0.584207 0.0785077 0.02916
0.665827 0.0827039 0.0591592
0.750515 0.0955673 0.0888075
0.839582 0.109926 0.115846
0.932754 0.129641 0.143877
0.992203 0.216022 0.205676
1 0.30985 0.280049
1 0.387747 0.349096
1 0.456321 0.414038
1 0.520195 0.477333
1 0.583322 0.542046
1 0.650568 0.613519
1 0.655482 0.619287
1 0.655482 0.619287
1 0.655482 0.619287
1 0.655482 0.619287
1 0.655482 0.619287
1 0.655482 0.619287
1 0.655482 0.619287
1 0.655482 0.619287
0.00289921 0.168093 0.0152743
0.0030518 0.168307 0.0141146
0.00373846 0.169024 0.00984207
0.00851453 0.17026 0.00204471
0.0411994 0.170382 0.00199893
0.0819257 0.170581 0.00192264
0.124147 0.170901 0.00177005
0.169741 0.17145 0.00149538
0.220127 0.171878 0.00251774
0.277363 0.171649 0.00459297
0.341909 0.169589 0.00816358
0.413611 0.164355 0.0131228
0.491875 0.154543 0.0201419
0.576257 0.138262 0.029984
0.665492 0.119478 0.0449226
0.755444 0.111421 0.0704967
0.843275 0.124773 0.105303
0.935271 0.143679 0.137972
0.99205 0.227008 0.204837
1 0.316182 0.280156
1 0.392035 0.349783
1 0.459464 0.41503
1 0.522622 0.478462
1 0.58526 0.543221
1 0.652125 0.614694
1 0.657008 0.620447
1 0.657008 0.620447
1 0.657008 0.620447
1 0.657008 0.620447
1 0.657008 0.620447
1 0.657008 0.620447
1 0.657008 0.620447
1 0.657008 0.620447
0.00483711 0.215 0.0250248
0.0049897 0.215137 0.0238651
0.00564584 0.215625 0.0195926
0.00735485 0.216678 0.0101167
0.0292363 0.217395 0.00355535
0.0744182 0.217472 0.0034638
0.118868 0.217594 0.00334173
0.165606 0.217807 0.0031281
0.216205 0.21825 0.00276188
0.271733 0.21825 0.00442512
0.334401 0.217472 0.00761425
0.404562 0.214755 0.0130007
0.48191 0.208881 0.020737
0.565957 0.198428 0.0311742
0.65594 0.182284 0.0460975
0.750729 0.162814 0.0644083
0.848463 0.148409 0.0873274
0.938231 0.165621 0.129229
0.991775 0.243153 0.203601
1 0.325658 0.280385
1 0.398444 0.35082
1 0.464164 0.41651
1 0.526223 0.48014
1 0.588113 0.544976
1 0.654444 0.616434
1 0.659281 0.622187
1 0.659281 0.622187
1 0.659281 0.622187
1 0.659281 0.622187
1 0.659281 0.622187
1 0.659281 0.622187
1 0.659281 0.622187
1 0.659281 0.622187
0.0078584 0.266423 0.0397192
0.00801099 0.266514 0.0385595
0.00860609 0.266865 0.034287
0.0101625 0.267628 0.024918
0.0138094 0.268925 0.00756847
0.0619211 0.269032 0.00604257
0.110567 0.269017 0.0059205
0.159319 0.269017 0.00572213
0.210971 0.269062 0.00544747
0.266896 0.269306 0.0049897
0.327718 0.268605 0.00761425
0.395911 0.266941 0.0124514
0.471672 0.263218 0.0203403
0.55462 0.256245 0.0316777
0.644083 0.244953 0.0471199
0.739284 0.228519 0.0653391
0.839277 0.208896 0.0870375
0.938598 0.201648 0.118975
0.992096 0.264469 0.200259
1 0.33959 0.280766
1 0.407874 0.352407
1 0.471046 0.418723
1 0.531502 0.482628
1 0.592294 0.547539
1 0.657816 0.618982
1 0.662593 0.62472
1 0.662593 0.62472
1 0.662593 0.62472
1 0.662593 0.62472
1 0.662593 0.62472
1 0.662593 0.62472
1 0.662593 0.62472
1 0.662593 0.62472
0.0123445 0.322148 0.058381
0.0125429 0.322225 0.0575113
0.0130922 0.322484 0.0541543
0.0145876 0.323049 0.0462501
0.0177768 0.324041 0.0295415
0.0395361 0.325093 0.0101167
0.0973526 0.325002 0.00999466
0.149722 0.324849 0.00982681
0.20322 0.324666 0.00959792
0.26009 0.324468 0.00926223
0.321569 0.324376 0.00874342
0.387732 0.322652 0.0127718
0.461418 0.319768 0.019913
0.542687 0.314656 0.0312047
0.631067 0.306218 0.0469368
0.725734 0.293584 0.0651408
0.826047 0.276631 0.0864576
0.929503 0.259617 0.115572
0.990784 0.295293 0.195438
1 0.357031 0.278645
1 0.421607 0.354818
1 0.48101 0.421973
1 0.539071 0.486244
1 0.59826 0.551232
1 0.662623 0.62266
1 0.667308 0.628382
1 0.667308 0.628382
1 0.667308 0.628382
1 0.667308 0.628382
1 0.667308 0.628382
1 0.667308 0.628382
1 0.667308 0.628382
1 0.667308 0.628382
0.018677 0.381765 0.079057
0.0188602 0.381826 0.0783856
0.0195773 0.382025 0.0758831
0.0208896 0.382467 0.0699779
0.0239109 0.383261 0.0580758
0.0296941 0.384543 0.0328069
0.0755016 0.385168 0.0162356
0.135012 0.384939 0.016083
0.191745 0.384604 0.0158999
0.250294 0.384146 0.0156405
0.312566 0.383581 0.0153048
0.379782 0.382986 0.0148623
0.451225 0.379904 0.0208286
0.530266 0.375448 0.0311589
0.616846 0.368627 0.0467079
0.710307 0.358465 0.0650034
0.809903 0.344518 0.0861219
0.914809 0.327962 0.112505
0.985595 0.340505 0.190509
1 0.384497 0.277729
1 0.437263 0.353964
1 0.494804 0.426261
1 0.549859 0.491478
1 0.606729 0.556558
1 0.669367 0.627909
1 0.673945 0.633616
1 0.673945 0.633616
1 0.673945 0.633616
1 0.673945 0.633616
1 0.673945 0.633616
1 0.673945 0.633616
1 0.673945 0.633616
1 0.673945 0.633616
0.0268711 0.444678 0.101946
0.0271763 0.444694 0.101289
0.0280919 0.444816 0.0991073
0.0296178 0.445182 0.094728
0.0322728 0.445853 0.0860304
0.0375525 0.446952 0.0694743
0.0473793 0.448615 0.0342412
0.112062 0.448707 0.0252384
0.174868 0.44828 0.0251316
0.236301 0.447669 0.0249638
0.300069 0.44683 0.0247807
0.367895 0.445762 0.024567
0.440833 0.444465 0.0243992
0.517403 0.439689 0.0329747
0.601602 0.433356 0.0472877
0.693217 0.424598 0.0651713
0.791455 0.412634 0.0860609
0.89572 0.397925 0.111467
0.978439 0.396948 0.180804
1 0.424445 0.277378
1 0.463325 0.356725
1 0.509926 0.42742
1 0.563577 0.497353
1 0.61854 0.564095
1 0.678706 0.635111
1 0.68307 0.640742
1 0.68307 0.640742
1 0.68307 0.640742
1 0.68307 0.640742
1 0.68307 0.640742
1 0.68307 0.640742
1 0.68307 0.640742
1 0.68307 0.640742
0.0365606 0.510079 0.127062
0.0369421 0.510094 0.126467
0.0382849 0.51014 0.124376
0.040589 0.510338 0.120378
0.0432898 0.510933 0.113939
0.0477455 0.51191 0.102251
0.055314 0.51342 0.0806897
0.0729686 0.51545 0.0381476
0.149813 0.514961 0.0381323
0.216571 0.51426 0.0381323
0.282918 0.513283 0.038117
0.35198 0.51194 0.0381476
0.425315 0.51017 0.0383001
0.503868 0.507942 0.0386969
0.585336 0.501198 0.0500038
0.674418 0.49276 0.0663005
0.770779 0.481971 0.0865339
0.873594 0.468589 0.111208
0.969314 0.458534 0.164309
1 0.475029 0.275135
1 0.500404 0.360891
1 0.534997 0.433448
1 0.578927 0.501274
1 0.632212 0.571618
1 0.691539 0.645243
1 0.695644 0.650797
1 0.695644 0.650797
1 0.695644 0.650797
1 0.695644 0.650797
1 0.695644 0.650797
1 0.695644 0.650797
1 0.695644 0.650797
1 0.695644 0.650797
0.0470436 0.576974 0.154009
0.0474403 0.576974 0.153475
0.0488289 0.577035 0.151598
0.051545 0.577188 0.147829
0.0551919 0.577585 0.141985
0.0588998 0.57847 0.13341
0.0651102 0.579873 0.118624
0.0750744 0.581949 0.0919051
0.110689 0.583871 0.0542916
0.188724 0.583124 0.0544137
0.259754 0.58204 0.0546273
0.331044 0.58056 0.0549172
0.405325 0.578546 0.055314
0.484001 0.57586 0.0559396
0.56788 0.572412 0.057023
0.653971 0.563516 0.0694133
0.747768 0.552987 0.087953
0.84863 0.540398 0.111711
0.952987 0.526177 0.14583
1 0.531304 0.268956
1 0.547143 0.365332
1 0.570153 0.441978
1 0.603204 0.510414
1 0.647913 0.578515
1 0.706127 0.655879
1 0.71107 0.662715
1 0.71107 0.662715
1 0.71107 0.662715
1 0.71107 0.662715
1 0.71107 0.662715
1 0.71107 0.662715
1 0.71107 0.662715
1 0.71107 0.662715
0.0568551 0.644282 0.182132
0.0572976 0.644297 0.181704
0.0587778 0.644388 0.180133
0.0614633 0.644572 0.176806
0.0657664 0.644953 0.171313
0.0707561 0.645685 0.16379
0.0757305 0.646983 0.153079
0.0839094 0.648905 0.135195
0.0966201 0.651728 0.103258
0.148302 0.653376 0.0721294
0.228687 0.652232 0.0724804
0.303975 0.65066 0.0729076
0.380056 0.648508 0.073518
0.459327 0.645594 0.0743572
0.543038 0.641764 0.0755627
0.631815 0.636805 0.0773022
0.72221 0.62565 0.0910506
0.820645 0.613382 0.113191
0.924895 0.598871 0.141482
0.992844 0.592645 0.253925
1 0.599664 0.368566
1 0.614099 0.452674
1 0.636927 0.523354
1 0.671672 0.590982
1 0.721553 0.665415
1 0.725765 0.671824
1 0.725765 0.671824
1 0.725765 0.671824
1 0.725765 0.671824
1 0.725765 0.671824
1 0.725765 0.671824
1 0.725765 0.671824
1 0.725765 0.671824
0.0658274 0.71107 0.210758
0.0662089 0.711101 0.210407
0.0675822 0.711223 0.20914
0.0705272 0.711467 0.206439
0.0751049 0.711925 0.20174
0.081178 0.712688 0.194675
0.0866712 0.713848 0.186236
0.0932631 0.715633 0.173449
0.103731 0.718227 0.152575
0.120058 0.72195 0.116045
0.185611 0.72311 0.0916915
0.269154 0.721401 0.0923171
0.34873 0.719127 0.0931716
0.429358 0.716106 0.0941939
0.513222 0.712077 0.0955062
0.601465 0.706798 0.097261
0.69456 0.700038 0.0995804
0.789456 0.68719 0.116136
0.891432 0.672816 0.142214
0.982391 0.658671 0.219196
1 0.657053 0.36701
1 0.663371 0.464042
1 0.678508 0.53994
1 0.704128 0.608454
1 0.744213 0.680903
1 0.747646 0.686992
1 0.747646 0.686992
1 0.747646 0.686992
1 0.747646 0.686992
1 0.747646 0.686992
1 0.747646 0.686976
1 0.747646 0.686992
1 0.747646 0.686976
0.0767681 0.777813 0.240192
0.0770886 0.777859 0.239918
0.0782635 0.777981 0.238911
0.080827 0.778271 0.236744
0.085359 0.77879 0.232959
0.0919661 0.779599 0.227054
0.0988022 0.780758 0.219333
0.104662 0.78233 0.210132
0.113191 0.784649 0.195575
0.126421 0.787915 0.172259
0.146761 0.792386 0.132418
0.22298 0.792798 0.114122
0.309941 0.790417 0.11516
0.393698 0.787213 0.116442
0.478614 0.782971 0.117968
0.566598 0.777401 0.119738
0.658625 0.770199 0.121782
0.755062 0.761044 0.124086
0.854109 0.746792 0.144747
0.958282 0.730037 0.176181
1 0.718486 0.352468
1 0.716793 0.473259
1 0.724636 0.558541
1 0.743221 0.630411
1 0.774273 0.701915
1 0.776761 0.707668
1 0.776761 0.707668
1 0.776761 0.707668
1 0.776761 0.707668
1 0.776761 0.707668
1 0.776761 0.707668
1 0.776761 0.707668
1 0.776761 0.707668
0.0912947 0.843824 0.270085
0.0915694 0.843854 0.269871
0.0925612 0.843992 0.269093
0.0946822 0.844266 0.267414
0.098497 0.844755 0.264424
0.104631 0.845533 0.259724
0.113115 0.846662 0.252888
0.118273 0.848005 0.245777
0.125597 0.849928 0.235401
0.136202 0.852659 0.219394
0.152361 0.856428 0.194324
0.177035 0.861387 0.152895
0.260884 0.860868 0.139712
0.35082 0.857649 0.141176
0.43827 0.853361 0.142977
0.526955 0.847761 0.145098
0.618601 0.840528 0.147509
0.713939 0.831281 0.150118
0.813138 0.819654 0.152636
0.914839 0.803128 0.176761
0.99324 0.784207 0.306371
1 0.773144 0.474052
1 0.773617 0.576532
1 0.785504 0.654887
1 0.809796 0.72755
1 0.81178 0.733196
1 0.81178 0.733196
1 0.81178 0.733196
1 0.81178 0.733196
1 0.81178 0.733196
1 0.81178 0.733196
1 0.81178 0.733196
1 0.81178 0.733196
0.110674 0.908019 0.299962
0.110903 0.908049 0.299794
0.111681 0.908156 0.299229
0.113405 0.908385 0.297978
0.116518 0.908797 0.29572
0.121569 0.909453 0.292103
0.129168 0.910414 0.286748
0.135897 0.911574 0.280797
0.141604 0.913115 0.273182
0.150423 0.915282 0.261906
0.163302 0.918288 0.244923
0.182498 0.922301 0.219028
0.211673 0.927382 0.178088
0.300145 0.925765 0.169207
0.391989 0.921553 0.17113
0.482139 0.916045 0.173434
0.573754 0.908919 0.176104
0.668193 0.899825 0.17911
0.765972 0.88838 0.182101
0.867124 0.874189 0.184466
0.970153 0.855161 0.213901
1 0.832563 0.453727
1 0.823911 0.589029
1 0.828946 0.679347
1 0.846632 0.755047
1 0.848203 0.760662
1 0.848203 0.760662
1 0.848203 0.760662
1 0.848203 0.760662
1 0.848203 0.760662
1 0.848203 0.760662
1 0.848203 0.760662
1 0.848203 0.760662
0.136278 0.96939 0.329671
0.136446 0.969406 0.329564
0.137148 0.969482 0.329168
0.138521 0.96965 0.328283
0.140993 0.96994 0.326665
0.145098 0.970413 0.324041
0.1514 0.97113 0.320089
0.158679 0.97203 0.315251
0.164446 0.973098 0.310063
0.172702 0.97464 0.302388
0.185519 0.976638 0.291615
0.205737 0.979095 0.276829
0.237186 0.98172 0.257694
0.284825 0.983688 0.235691
0.359228 0.982101 0.225849
0.439933 0.978836 0.217639
0.526436 0.973404 0.211856
0.618708 0.965072 0.212116
0.714778 0.95404 0.215625
0.813901 0.940368 0.218784
0.916014 0.923644 0.220417
0.996033 0.897856 0.374975
1 0.875532 0.587839
1 0.871931 0.700282
1 0.88275 0.782238
1 0.883909 0.787961
1 0.883909 0.787961
1 0.883909 0.787961
1 0.883909 0.787961
1 0.883909 0.787961
1 0.883909 0.787961
1 0.883909 0.787961
1 0.883909 0.787961
0.361746 0.999969 0.434485
0.361852 0.999969 0.434455
0.36228 0.999969 0.434394
0.363195 0.999954 0.434226
0.364858 0.999939 0.433921
0.367529 0.999924 0.433387
0.371633 0.999893 0.432578
0.376959 0.999878 0.431556
0.381872 0.999954 0.430671
0.388907 1 0.429435
0.398444 1 0.427573
0.4112 1 0.424887
0.428244 1 0.421103
0.450172 1 0.41561
0.477928 1 0.407584
0.518074 1 0.402197
0.566476 1 0.394568
0.623087 0.999405 0.381842
0.688884 0.997467 0.360098
0.765698 0.994049 0.321752
0.857252 0.985748 0.268681
0.95906 0.967346 0.262165
1 0.931212 0.550378
1 0.914412 0.713634
1 0.916976 0.807584
1 0.917678 0.813565
1 0.917678 0.813565
1 0.917678 0.813565
1 0.917678 0.813565
1 0.917678 0.813565
1 0.917678 0.813565
1 0.917678 0.813565
1 0.917678 0.813565
0.553658 1 0.568765
0.553704 1 0.56875
0.553841 1 0.568719
0.554147 1 0.568627
0.554711 1 0.56849
0.555642 1 0.568231
0.557092 1 0.567834
0.558968 1 0.567376
0.561074 1 0.567071
0.564065 1 0.566613
0.568368 1 0.566033
0.574182 1 0.565179
0.582025 1 0.563882
0.592584 1 0.562081
0.606439 1 0.559411
0.624277 1 0.555367
0.651514 1 0.554726
0.685237 1 0.55346
0.725628 1 0.549859
0.77348 1 0.541543
0.830076 1 0.5234
0.898909 1 0.483146
0.989746 1 0.385
1 0.958038 0.708751
1 0.949203 0.830976
1 0.949325 0.837415
1 0.949325 0.837415
1 0.949325 0.837415
1 0.949325 0.837415
1 0.949325 0.837415
1 0.949325 0.837415
1 0.949325 0.837415
1 0.949325 0.837415
0.698207 1 0.693385
0.698222 1 0.69337
0.698283 1 0.693355
0.698405 1 0.693324
0.698619 1 0.693248
0.698985 1 0.693141
0.699565 1 0.692958
0.700313 1 0.692973
0.701381 1 0.692988
0.702937 1 0.693019
0.70515 1 0.693049
0.708247 1 0.693111
0.712474 1 0.693202
0.71812 1 0.693202
0.725658 1 0.693217
0.735515 1 0.69308
0.74818 1 0.692576
0.767269 1 0.695308
0.790921 1 0.698604
0.819211 1 0.70161
0.852506 1 0.703273
0.891356 1 0.701274
0.937392 1 0.690105
0.996674 1 0.652216
1 0.979385 0.851942
1 0.978775 0.859785
1 0.978775 0.859785
1 0.978775 0.859785
1 0.978775 0.859785
1 0.978775 0.859785
1 0.978775 0.859785
1 0.978775 0.859785
1 0.978775 0.859785
0.823362 1 0.814984
0.823362 1 0.814984
0.823392 1 0.814969
0.823438 1 0.814984
0.823529 1 0.815
0.823682 1 0.815045
0.823926 1 0.815122
0.824308 1 0.815229
0.824857 1 0.815381
0.825666 1 0.81561
0.826795 1 0.81593
0.828382 1 0.816358
0.830533 1 0.816922
0.833539 1 0.817731
0.837568 1 0.818784
0.842863 1 0.820172
0.849729 1 0.821958
0.858488 1 0.82417
0.870756 1 0.828595
0.885985 1 0.834501
0.903914 1 0.84155
0.924529 1 0.849775
0.947509 1 0.859236
0.972412 1 0.87013
0.998383 1 0.882918
0.999344 1 0.88864
0.999344 1 0.88864
0.999344 1 0.88864
0.999344 1 0.88864
0.999344 1 0.88864
0.999344 1 0.88864
0.999344 1 0.88864
0.999344 1 0.88864
0.831113 1 0.823713
0.831113 1 0.823713
0.831128 1 0.823713
0.831174 1 0.823728
0.831266 1 0.823758
0.831403 1 0.823804
0.831647 1 0.82388
0.831998 1 0.823987
0.832517 1 0.82414
0.833265 1 0.824369
0.834333 1 0.824689
0.835813 1 0.825132
0.837858 1 0.825711
0.84065 1 0.826505
0.844495 1 0.827588
0.849531 1 0.828992
0.856107 1 0.830808
0.8645 1 0.833112
0.875975 1 0.837186
0.890532 1 0.843061
0.907698 1 0.850126
0.927398 1 0.858473
0.949355 1 0.868208
0.972992 1 0.879805
0.997101 1 0.894789
0.99855 1 0.895293
0.99855 1 0.895293
0.99855 1 0.895293
0.99855 1 0.895293
0.99855 1 0.895293
0.99855 1 0.895293
0.99855 1 0.895293
0.99855 1 0.895293
0.831113 1 0.823713
0.831113 1 0.823713
0.831128 1 0.823713
0.831174 1 0.823728
0.831266 1 0.823758
0.831403 1 0.823804
0.831647 1 0.82388
0.831998 1 0.823987
0.832517 1 0.82414
0.833265 1 0.824369
0.834333 1 0.824689
0.835813 1 0.825132
0.837858 1 0.825711
0.84065 1 0.826505
0.844495 1 0.827588
0.849531 1 0.828992
0.856107 1 0.830808
0.8645 1 0.833112
0.875975 1 0.837186
0.890532 1 0.843061
0.907698 1 0.850126
0.927398 1 0.858473
0.949355 1 0.868208
0.972992 1 0.879805
0.997101 1 0.894789
0.99855 1 0.895293
0.99855 1 0.895293
0.99855 1 0.895293
0.99855 1 0.895293
0.99855 1 0.895293
0.99855 1 0.895293
0.99855 1 0.895293
0.99855 1 0.895293
0.831113 1 0.823713
0.831113 1 0.823713
0.831128 1 0.823713
0.831174 1 0.823728
0.831266 1 0.823758
0.831403 1 0.823804
0.831647 1 0.82388
0.831998 1 0.823987
0.832517 1 0.82414
