ACES20_P3D65PQ1000_to_sRGBPW.cube
TITLE "Generated by Resolve"
LUT_3D_SIZE 9
0 0 0
0.0662242 0.000503548 0.00131228
0.242725 0.0047303 0.0113222
0.499535 0.0284886 0.0552224
0.83389 0.0892805 0.130236
1 0.381064 0.349004
1 0.648173 0.611765
1 0.653132 0.617517
1 0.653132 0.617517
0.000518807 0.0537575 0.00267033
0.055375 0.0562142 0.000228885
0.238148 0.0487373 0.00291447
0.50248 0.0379339 0.0400854
0.835569 0.0952468 0.126131
1 0.383185 0.348486
1 0.648875 0.612268
1 0.653834 0.618051
1 0.653834 0.618051
0.00483711 0.215 0.0250248
0.0292363 0.217395 0.00355535
0.216205 0.21825 0.00276188
0.48191 0.208881 0.020737
0.848463 0.148409 0.0873274
1 0.398444 0.35082
1 0.654444 0.616434
1 0.659281 0.622187
1 0.659281 0.622187
0.0268711 0.444678 0.101946
0.0322728 0.445853 0.0860304
0.174868 0.44828 0.0251316
0.440833 0.444465 0.0243992
0.791455 0.412634 0.0860609
1 0.463325 0.356725
1 0.678706 0.635111
1 0.68307 0.640742
1 0.68307 0.640742
0.0658274 0.71107 0.210758
0.0751049 0.711925 0.20174
0.103731 0.718227 0.152575
0.34873 0.719127 0.0931716
0.69456 0.700038 0.0995804
1 0.657053 0.36701
1 0.744213 0.680903
1 0.747646 0.686992
1 0.747646 0.686976
0.136278 0.96939 0.329671
0.140993 0.96994 0.326665
0.164446 0.973098 0.310063
0.237186 0.98172 0.257694
0.526436 0.973404 0.211856
0.916014 0.923644 0.220417
1 0.88275 0.782238
1 0.883909 0.787961
1 0.883909 0.787961
0.823362 1 0.814984
0.823529 1 0.815
0.824857 1 0.815381
0.830533 1 0.816922
0.849729 1 0.821958
0.903914 1 0.84155
0.998383 1 0.882918
0.999344 1 0.88864
0.999344 1 0.88864
0.831113 1 0.823713
0.831266 1 0.823758
0.832517 1 0.82414
0.837858 1 0.825711
0.856107 1 0.830808
0.907698 1 0.850126
0.997101 1 0.894789
0.99855 1 0.895293
0.99855 1 0.895293
0.831113 1 0.823713
0.831266 1 0.823758
0.832517 1 0.82414
0.837858 1 0.825711
0.856107 1 0.830808
0.907698 1 0.850126
0.997101 1 0.894789
0.99855 1 0.895293
0.99855 1 0.895293
0.000167849 0.0043946 0.0806897
0.0642405 0.000915541 0.0579232
0.233509 0.00598154 0.0622873
0.4925 0.0310979 0.0754101
0.840467 0.0798199 0.14374
1 0.380377 0.353307
1 0.648005 0.612512
1 0.653086 0.618402
1 0.653086 0.618402
0.00167849 0.0552224 0.0542458
0.0560464 0.0560464 0.0560464
0.240284 0.0374151 0.0474708
0.491218 0.0466621 0.0614939
0.834623 0.0957656 0.134508
1 0.382483 0.352026
1 0.648554 0.612757
1 0.65359 0.618601
1 0.65359 0.618601
0.00679026 0.215335 0.0779736
0.0225376 0.216495 0.0586099
0.21561 0.216022 0.0281834
0.481209 0.206638 0.0342412
0.846952 0.150713 0.0968338
1 0.397955 0.352895
1 0.653696 0.616098
1 0.658503 0.621775
1 0.658503 0.621775
0.0262455 0.445258 0.124468
0.0410315 0.444663 0.107256
0.166339 0.448112 0.0389258
0.44036 0.443397 0.0382696
0.792981 0.411765 0.092256
1 0.46276 0.358953
1 0.677958 0.63473
1 0.682292 0.640299
1 0.682292 0.640299
0.0620432 0.710857 0.220691
0.0724498 0.711727 0.211215
0.107088 0.717968 0.161456
0.34641 0.719585 0.0983597
0.694713 0.699962 0.104463
1 0.65687 0.369162
1 0.743938 0.680919
1 0.747341 0.686976
1 0.747341 0.686976
0.133608 0.969162 0.333272
0.138689 0.969696 0.330327
0.167529 0.973098 0.311925
0.240238 0.981567 0.260716
0.527001 0.973342 0.215167
0.916045 0.923629 0.222889
1 0.882689 0.782391
1 0.883848 0.788113
1 0.883848 0.788113
0.823407 1 0.815305
0.823545 1 0.815259
0.824826 1 0.815503
0.830503 1 0.817044
0.849699 1 0.82208
0.903899 1 0.841642
0.998398 1 0.882979
0.999344 1 0.888792
0.999344 1 0.888792
0.831174 1 0.824033
0.831296 1 0.823987
0.832486 1 0.824262
0.837827 1 0.825849
0.856077 1 0.83093
0.907683 1 0.850233
0.997101 1 0.89485
0.998566 1 0.895369
0.998566 1 0.895369
0.831174 1 0.824033
0.831296 1 0.823987
0.832486 1 0.824262
0.837827 1 0.825849
0.856077 1 0.83093
0.907668 1 0.850233
0.997101 1 0.89485
0.998566 1 0.895354
0.998566 1 0.895354
0.00155642 0.0372931 0.272251
0.0496223 0.00668345 0.265949
0.237964 0.00830091 0.222416
0.489174 0.0335851 0.222904
0.839139 0.0794537 0.202121
1 0.380179 0.371176
1 0.648386 0.619058
1 0.654139 0.625498
1 0.654139 0.625498
0.00666819 0.068513 0.213962
0.0527504 0.051606 0.232685
0.2392 0.0370947 0.225574
0.488869 0.0491951 0.220203
0.834501 0.0930343 0.20206
1 0.381659 0.370291
1 0.648737 0.619074
1 0.654459 0.625498
1 0.654459 0.625513
0.00920119 0.217151 0.21474
0.0285801 0.217411 0.215259
0.214984 0.214984 0.214984
0.491478 0.192325 0.202457
0.84213 0.156374 0.183993
1 0.395254 0.368368
1 0.652171 0.620172
1 0.657694 0.626551
1 0.657694 0.626551
0.0209659 0.445808 0.238819
0.0411231 0.444587 0.233967
0.129244 0.448356 0.192996
0.4383 0.438651 0.168505
0.806317 0.403998 0.153704
1 0.45919 0.374945
1 0.673732 0.634394
1 0.67834 0.640146
1 0.67834 0.640146
0.0294499 0.710216 0.280659
0.0437629 0.710643 0.273777
0.119463 0.716167 0.228733
0.325277 0.723476 0.143267
0.695659 0.69929 0.145968
1 0.654902 0.385794
1 0.742473 0.683192
1 0.746075 0.689357
1 0.746075 0.689357
0.114778 0.967468 0.358679
0.119829 0.968002 0.356069
0.156008 0.971908 0.336431
0.249302 0.980636 0.285237
0.52546 0.973861 0.236255
0.916579 0.923568 0.237537
1 0.882338 0.784207
1 0.883513 0.789975
1 0.883513 0.789975
0.82388 1 0.817777
0.824002 1 0.817716
0.824979 1 0.81738
0.830335 1 0.818173
0.849577 1 0.823224
0.903777 1 0.842588
0.998489 1 0.883528
0.999359 1 0.889952
0.999359 1 0.889952
0.831754 1 0.826444
0.831876 1 0.826398
0.832746 1 0.826154
0.837705 1 0.827024
0.85597 1 0.83212
0.907561 1 0.851179
0.997162 1 0.89543
0.998657 1 0.895933
0.998657 1 0.895933
0.831754 1 0.826444
0.831876 1 0.826398
0.832746 1 0.826154
0.837705 1 0.827024
0.85597 1 0.832135
0.907546 1 0.851179
0.997162 1 0.89543
0.998657 1 0.895933
0.998657 1 0.895933
0.0128786 0.109392 0.526864
0.0165103 0.0742809 0.539818
0.227146 0.0389715 0.511452
0.489601 0.0473793 0.461189
0.827405 0.0880751 0.43267
1 0.381674 0.430091
1 0.652567 0.632456
1 0.658793 0.638911
1 0.658793 0.638911
0.0203098 0.114366 0.495171
0.0263676 0.08542 0.511284
0.228336 0.0589151 0.499062
0.489647 0.0600137 0.461326
0.82475 0.100435 0.433188
1 0.383154 0.430961
1 0.652857 0.632563
1 0.659098 0.639048
1 0.659098 0.639048
0.0260471 0.229831 0.455314
0.0496986 0.22771 0.45449
0.210636 0.210254 0.476722
0.484474 0.191577 0.461616
0.831785 0.161822 0.430411
1 0.396796 0.435813
1 0.655665 0.634073
1 0.661967 0.640742
1 0.661982 0.640742
0.0267033 0.446143 0.441672
0.0488289 0.445029 0.440696
0.140764 0.444434 0.440909
0.434379 0.434379 0.434379
0.78706 0.409308 0.417868
1 0.456672 0.439933
1 0.672557 0.64683
1 0.678874 0.653956
1 0.678874 0.653956
0.0231174 0.709056 0.423911
0.0399176 0.709056 0.423819
0.128328 0.711635 0.417456
0.330251 0.716823 0.390677
0.690532 0.69221 0.381857
1 0.650172 0.45034
1 0.745052 0.702892
1 0.748943 0.708568
1 0.748943 0.708568
0.0138094 0.964477 0.419989
0.0253147 0.964858 0.419089
0.0924697 0.967803 0.412009
0.237522 0.978225 0.374823
0.513329 0.975067 0.32282
0.917693 0.92256 0.301946
1 0.881514 0.79501
1 0.882811 0.800946
1 0.882811 0.800946
0.826581 1 0.827634
0.826673 1 0.827573
0.827375 1 0.827176
0.831357 1 0.826459
0.849714 1 0.829938
0.903563 1 0.847807
0.998886 1 0.886259
0.99942 1 0.895064
0.99942 1 0.895064
0.834852 1 0.836057
0.834928 1 0.836011
0.835584 1 0.835721
0.8392 1 0.835309
0.85626 1 0.838911
0.907378 1 0.856336
0.997421 1 0.898344
0.999054 1 0.898695
0.999054 1 0.898695
0.834852 1 0.836057
0.834928 1 0.836011
0.835584 1 0.835721
0.8392 1 0.835309
0.85626 1 0.838911
0.907378 1 0.856336
0.997421 1 0.898344
0.999054 1 0.898695
0.999054 1 0.898695
0.0678874 0.209079 0.85948
0.0725719 0.198749 0.866697
0.187182 0.174319 0.870741
0.462333 0.149905 0.834897
0.806638 0.130663 0.763073
1 0.393927 0.643992
1 0.664439 0.678828
1 0.670634 0.683009
1 0.670634 0.683009
0.0743725 0.214435 0.850752
0.0791485 0.204761 0.858015
0.190753 0.182727 0.862776
0.462303 0.159335 0.831922
0.806241 0.138857 0.762295
1 0.395758 0.644648
1 0.664729 0.678935
1 0.670939 0.683131
1 0.670939 0.683131
0.098497 0.268894 0.822705
0.111238 0.262013 0.81709
0.196521 0.239017 0.835416
0.460014 0.223468 0.815808
0.807752 0.186786 0.764446
1 0.410544 0.648081
1 0.667506 0.680064
1 0.673777 0.684337
1 0.673777 0.684337
0.0678264 0.437507 0.774823
0.0803845 0.438788 0.770962
0.162509 0.438712 0.774594
0.427176 0.429252 0.770062
0.769009 0.407446 0.735653
1 0.467399 0.651133
1 0.683772 0.688045
1 0.68986 0.692653
1 0.68986 0.692653
0.0371099 0.705455 0.698726
0.0547494 0.705318 0.698573
0.143252 0.705135 0.698711
0.348089 0.701656 0.696803
0.679805 0.679789 0.679789
1 0.651225 0.655543
1 0.736675 0.719371
1 0.741009 0.723873
1 0.741009 0.723873
0.036759 0.960327 0.598444
0.0476387 0.96051 0.598871
0.106416 0.96202 0.601205
0.258732 0.966888 0.60116
0.56408 0.947219 0.608118
0.901808 0.905013 0.594293
1 0.880827 0.822202
1 0.882048 0.82649
1 0.882048 0.82649
0.829953 1 0.844602
0.830014 1 0.844587
0.830594 1 0.844633
0.834516 1 0.845914
0.85304 1 0.853513
0.903655 1 0.866499
0.999283 1 0.901381
0.999786 1 0.910475
0.999786 1 0.91046
0.839338 1 0.852949
0.839399 1 0.852949
0.839933 1 0.85304
0.843473 1 0.854307
0.86067 1 0.861845
0.907637 1 0.87396
0.998199 1 0.909377
0.999298 1 0.914321
0.999298 1 0.914321
0.839338 1 0.852949
0.839399 1 0.852949
0.839933 1 0.85304
0.843473 1 0.854307
0.86067 1 0.861845
0.907637 1 0.87396
0.998199 1 0.909377
0.999298 1 0.914321
0.999298 1 0.914321
0.384451 0.474083 1
0.386419 0.473869 1
0.401556 0.472236 1
0.470405 0.468742 1
0.686091 0.462089 0.99826
1 0.457694 0.956756
1 0.703243 0.814878
1 0.711528 0.817609
1 0.711528 0.817609
0.384619 0.474998 1
0.386603 0.4748 1
0.401816 0.473213 1
0.470634 0.469947 1
0.686366 0.463157 0.997986
1 0.459174 0.956436
1 0.703532 0.814954
1 0.711849 0.817716
1 0.711849 0.817716
0.386755 0.484169 1
0.388724 0.48397 1
0.404059 0.482719 1
0.472084 0.479744 1
0.686381 0.473548 0.997269
1 0.469978 0.9552
1 0.708705 0.817166
1 0.714641 0.818586
1 0.714641 0.818586
0.407584 0.539223 1
0.407156 0.537224 1
0.414084 0.52903 0.997055
0.476112 0.523888 0.997971
0.684306 0.518883 0.994934
1 0.509438 0.956985
1 0.723644 0.822187
1 0.729717 0.823865
1 0.729717 0.823865
0.388663 0.672251 0.999756
0.389776 0.672908 0.999298
0.401953 0.676692 0.996185
0.472602 0.680583 0.989105
0.665675 0.672267 0.986007
0.999023 0.64445 0.958953
1 0.772396 0.839246
1 0.776699 0.840452
1 0.776699 0.840452
0.0706035 0.938613 0.93019
0.0782025 0.938643 0.930205
0.125872 0.938933 0.930358
0.270787 0.938476 0.930236
0.583459 0.916243 0.910735
0.881361 0.881346 0.881361
1 0.886961 0.885908
1 0.88777 0.886458
1 0.88777 0.886458
0.852018 1 0.902373
0.852094 1 0.902388
0.852781 1 0.90251
0.856184 1 0.903136
0.869856 1 0.905272
0.909316 1 0.912627
0.999695 1 0.938827
1 1 0.944335
1 1 0.944335
0.860075 1 0.90576
0.860151 1 0.905776
0.860792 1 0.905867
0.863996 1 0.906325
0.876905 1 0.908339
0.913497 1 0.916915
0.999222 1 0.942031
0.999741 1 0.948653
0.999741 1 0.948653
0.860075 1 0.90576
0.860151 1 0.905776
0.860792 1 0.905867
0.863996 1 0.906325
0.876905 1 0.908339
0.913497 1 0.916915
0.999222 1 0.942031
0.999741 1 0.948653
0.999741 1 0.948653
0.648463 0.706142 1
0.648814 0.706172 1
0.651499 0.706401 1
0.663127 0.707424 1
0.709392 0.715114 1
0.845441 0.742611 1
1 0.814908 0.982727
1 0.818692 0.98117
1 0.818692 0.981155
0.648798 0.7066 1
0.649149 0.70663 1
0.651835 0.706859 1
0.663432 0.707866 1
0.70959 0.715511 1
0.845518 0.742931 1
1 0.815137 0.982742
1 0.818921 0.981186
1 0.818921 0.981186
0.651362 0.710018 1
0.651698 0.710048 1
0.654353 0.710277 1
0.665797 0.711284 1
0.711223 0.7187 1
0.846082 0.745632 1
1 0.816999 0.98291
1 0.820645 0.981353
1 0.820645 0.981353
0.666468 0.728466 1
0.666423 0.728145 1
0.667094 0.72665 1
0.676661 0.726497 1
0.718715 0.733272 1
0.848356 0.75903 1
1 0.825849 0.984009
1 0.828916 0.982345
1 0.828916 0.982345
0.721614 0.788067 1
0.721355 0.787717 1
0.720333 0.785794 1
0.72491 0.78436 1
0.75404 0.788785 1
0.857771 0.806943 1
1 0.857374 0.988251
1 0.859312 0.986465
1 0.859312 0.986465
0.784573 0.877501 1
0.784695 0.877516 1
0.785779 0.877653 1
0.792355 0.878325 1
0.820157 0.881941 1
0.888258 0.899199 1
1 0.922911 0.994751
1 0.924712 0.993423
1 0.924712 0.993423
0.891539 1 0.998291
0.891615 1 0.998291
0.89221 1 0.998291
0.894957 1 0.998306
0.905516 1 0.998489
0.937087 1 0.999084
1 1 1
1 1 1
1 1 1
0.899489 1 0.997162
0.899565 1 0.997162
0.90016 1 0.997162
0.902922 1 0.997208
0.913298 1 0.997452
0.943587 1 0.998123
1 1 1
1 1 1
1 1 1
0.899489 1 0.997162
0.899565 1 0.997162
0.90016 1 0.997162
0.902922 1 0.997208
0.913298 1 0.997452
0.943587 1 0.998123
1 1 1
1 1 1
1 1 1
0.652354 0.709499 1
0.652689 0.709529 1
0.655314 0.709773 1
0.666667 0.710826 1
0.712001 0.719066 1
0.845121 0.747326 1
1 0.819135 0.985443
1 0.821408 0.983444
1 0.821408 0.983444
0.652674 0.709941 1
0.653025 0.709972 1
0.65565 0.710216 1
0.666972 0.711269 1
0.7122 0.719448 1
0.845197 0.747646 1
1 0.819364 0.985458
1 0.821637 0.983474
1 0.821637 0.983474
0.655634 0.713726 1
0.655818 0.713619 1
0.658152 0.713588 1
0.669367 0.714687 1
0.713848 0.722622 1
0.845777 0.750378 1
1 0.821286 0.985672
1 0.82356 0.983688
1 0.82356 0.983688
0.671778 0.732982 1
0.671748 0.732692 1
0.672343 0.731228 1
0.681529 0.731136 1
0.722011 0.738003 1
0.848203 0.764202 1
1 0.830488 0.986831
1 0.832685 0.984878
1 0.832685 0.984878
0.727886 0.792645 1
0.727672 0.79234 1
0.72694 0.790707 1
0.731899 0.789868 1
0.760006 0.79469 1
0.858885 0.812711 1
1 0.86276 0.990967
1 0.864744 0.989166
1 0.864744 0.989166
0.789548 0.878279 1
0.78967 0.878294 1
0.790875 0.878416 1
0.797757 0.879149 1
0.827085 0.88481 1
0.894743 0.90631 1
1 0.930037 0.996719
1 0.932448 0.996094
1 0.932448 0.996094
0.893385 1 0.999832
0.893462 1 0.999832
0.894102 1 0.999832
0.896956 1 0.999878
0.908141 1 0.999985
0.941085 1 1
1 1 1
1 1 1
1 1 1
0.900511 1 0.998459
0.900587 1 0.998459
0.901198 1 0.998474
0.904005 1 0.99852
0.91458 1 0.998734
0.945342 1 0.999329
1 1 1
1 1 1
1 1 1
0.900496 1 0.998459
0.900587 1 0.998459
0.901198 1 0.998474
0.904005 1 0.99852
0.91458 1 0.998734
0.945342 1 0.999329
1 1 1
1 1 1
1 1 1
0.652354 0.709499 1
0.652689 0.709529 1
0.655314 0.709773 1
0.666667 0.710826 1
0.712001 0.719066 1
0.845121 0.747326 1
1 0.819135 0.985443
1 0.821408 0.983444
1 0.821408 0.983444
0.652674 0.709941 1
0.653025 0.709972 1
0.65565 0.710216 1
0.666972 0.711269 1
0.7122 0.719448 1
0.845197 0.747646 1
1 0.819364 0.985458
1 0.821637 0.983474
1 0.821637 0.983474
0.655634 0.713726 1
0.655818 0.713619 1
0.658152 0.713588 1
0.669367 0.714687 1
0.713848 0.722622 1
0.845777 0.750378 1
1 0.821286 0.985672
1 0.82356 0.983688
1 0.82356 0.983688
0.671778 0.732982 1
0.671748 0.732692 1
0.672343 0.731228 1
0.681529 0.731136 1
0.722011 0.738003 1
0.848203 0.764202 1
1 0.830488 0.986831
1 0.832685 0.984878
1 0.832685 0.984878
0.727886 0.792645 1
0.727672 0.79234 1
0.72694 0.790707 1
0.731899 0.789868 1
0.760006 0.79469 1
0.858885 0.812711 1
1 0.86276 0.990967
1 0.864744 0.989166
1 0.864744 0.989166
0.789548 0.878279 1
0.78967 0.878294 1
0.790875 0.878416 1
0.797757 0.879149 1
0.827085 0.88481 1
0.894743 0.90631 1
1 0.930037 0.996719
1 0.932448 0.996094
1 0.932448 0.996094
0.893385 1 0.999832
0.893462 1 0.999832
0.894102 1 0.999832
0.896956 1 0.999878
0.908141 1 0.999985
0.941085 1 1
1 1 1
1 1 1
1 1 1
0.900511 1 0.998459
0.900587 1 0.998459
0.901198 1 0.998474
0.904005 1 0.99852
0.91458 1 0.998734
0.945342 1 0.999329
1 1 1
1 1 1
1 1 1
0.900511 1 0.998459
0.900587 1 0.998459
0.901198 1 0.998474
0.904005 1 0.99852
0.91458 1 0.998734
0.945342 1 0.999329
1 1 1
1 1 1
1 1 1
