ACES20_P3D65PQ1000_to_sRGB22.cube
TITLE "Generated by Resolve"
LUT_3D_SIZE 5
0 0 0
0.25478 0.0286564 0.0403449
0.840665 0.118181 0.151186
1 0.654063 0.618433
1 0.670558 0.640177
0.027451 0.230579 0.0680247
0.227787 0.234531 0.0246738
0.853407 0.176776 0.115602
1 0.660426 0.62327
1 0.676295 0.644724
0.0839857 0.713146 0.248676
0.117998 0.720745 0.20238
0.686107 0.70634 0.1299
1 0.750927 0.689632
1 0.761898 0.713726
0.837797 1 0.841291
0.838895 1 0.841749
0.858305 1 0.849546
0.999557 1 0.930449
0.999207 1 0.92105
0.844221 1 0.851972
0.845563 1 0.852811
0.865232 1 0.864332
0.995163 1 0.922728
0.998535 1 0.928008
0.0126955 0.0878767 0.324865
0.251164 0.033875 0.246815
0.846006 0.107973 0.222248
1 0.654169 0.625666
1 0.673991 0.649409
0.0362402 0.231342 0.235782
0.224338 0.230167 0.239536
0.848585 0.179324 0.208209
1 0.657938 0.626856
1 0.678645 0.651347
0.042298 0.713069 0.304646
0.12987 0.718425 0.267414
0.686717 0.705699 0.175311
1 0.749065 0.691768
1 0.764462 0.717052
0.838712 1 0.843473
0.840116 1 0.843671
0.859388 1 0.850477
0.999481 1 0.928328
0.999222 1 0.922393
0.84506 1 0.85362
0.846296 1 0.853941
0.865797 1 0.864637
0.995239 1 0.923644
0.998611 1 0.928771
0.0830091 0.239506 0.900252
0.168688 0.185901 0.92755
0.804013 0.15378 0.790722
1 0.67013 0.687922
1 0.69131 0.700969
0.121019 0.281392 0.83949
0.187396 0.24567 0.873594
0.805463 0.198962 0.793683
1 0.673289 0.689219
1 0.696452 0.704875
0.0602121 0.70396 0.718151
0.145098 0.704356 0.719127
0.671656 0.681712 0.697902
1 0.74316 0.72845
1 0.761379 0.747066
0.851011 1 0.867353
0.851911 1 0.86775
0.872389 1 0.879271
0.997055 1 0.934539
0.999512 1 0.940505
0.888869 1 0.899428
0.889189 1 0.899687
0.890455 1 0.900587
0.99617 1 0.938186
0.999252 1 0.944244
0.638987 0.699443 1
0.641886 0.699672 1
0.698482 0.707942 1
1 0.823041 0.989425
1 0.831037 0.983154
0.641794 0.702907 1
0.644694 0.703151 1
0.701152 0.712383 1
1 0.825727 0.989578
1 0.833631 0.983368
0.725567 0.791226 1
0.726024 0.790463 1
0.76109 0.797757 1
1 0.879606 0.99646
1 0.888884 0.992432
0 0 0
0.900099 1 0.999329
0.914687 1 0.999603
1 1 1
1 1 1
0.904814 1 0.998383
0.905684 1 0.998413
0.919966 1 0.998703
1 1 1
1 1 1
0.638987 0.699443 1
0.641886 0.699672 1
0.698482 0.707942 1
1 0.823041 0.989425
1 0.831037 0.983154
0.641794 0.702907 1
0.644694 0.703151 1
0.701152 0.712383 1
1 0.825711 0.989578
1 0.833631 0.983368
0.725567 0.791226 1
0.726024 0.790463 1
0.76109 0.797757 1
1 0.879606 0.99646
1 0.888884 0.992432
0 0 0
0.900099 1 0.999329
0.914687 1 0.999603
1 1 1
1 1 1
0.904814 1 0.998383
0.905684 1 0.998413
0.919966 1 0.998703
1 1 1
1 1 1
