ACES20_P3D65PQ1000D60_to_sRGBPW.cube
TITLE "Generated by Resolve"
LUT_3D_SIZE 9
0 0 0
0.0676127 0.000564584 0.00128176
0.24622 0.00521859 0.0110781
0.506325 0.0309911 0.0551308
0.844831 0.0939803 0.131701
1 0.392233 0.358419
1 0.659892 0.624094
1 0.676387 0.64596
1 0.676387 0.64596
0.000518807 0.0556039 0.00378424
0.0557107 0.0587167 0.000350958
0.24097 0.0533913 0.0031281
0.509499 0.0414893 0.0390784
0.846326 0.100649 0.127291
1 0.394476 0.357733
1 0.660594 0.624628
1 0.677043 0.646464
1 0.677043 0.646464
0.00474556 0.219883 0.0349279
0.0154421 0.223239 0.00445563
0.216846 0.224216 0.00375372
0.486915 0.216358 0.0221866
0.857313 0.160479 0.0909895
1 0.41004 0.360159
1 0.66627 0.628977
1 0.682139 0.650523
1 0.682139 0.650523
0.0243687 0.452995 0.12253
0.0305943 0.453956 0.108019
0.158175 0.458167 0.0293736
0.440848 0.454276 0.0291295
0.797681 0.423362 0.0899214
1 0.475303 0.367178
1 0.690898 0.648417
1 0.703975 0.668498
1 0.703975 0.668498
0.0539254 0.718868 0.239612
0.0642405 0.719814 0.231159
0.0937514 0.726421 0.188922
0.326055 0.732265 0.0996414
0.69192 0.712093 0.107454
1 0.668315 0.379416
1 0.756359 0.695445
1 0.767224 0.719448
1 0.767224 0.719448
0.119051 0.97496 0.361456
0.123964 0.975418 0.359106
0.148135 0.978408 0.345251
0.227451 0.986481 0.303029
0.505989 0.983841 0.24033
0.909255 0.935195 0.22977
1 0.891432 0.796201
1 0.892805 0.820676
1 0.892805 0.820676
0.842008 1 0.845441
0.84213 1 0.845487
0.843076 1 0.845884
0.847181 1 0.847593
0.862104 1 0.853529
0.909941 1 0.873304
0.999573 1 0.93254
0.999237 1 0.9234
0.999237 1 0.9234
0.84831 1 0.855909
0.848463 1 0.856001
0.849622 1 0.856733
0.854566 1 0.859846
0.868894 1 0.868009
0.910948 1 0.889723
0.995315 1 0.925017
0.998581 1 0.930159
0.998581 1 0.930159
0.84831 1 0.855909
0.848463 1 0.856001
0.849622 1 0.856733
0.854566 1 0.859846
0.868894 1 0.868025
0.910948 1 0.889723
0.995315 1 0.925017
0.998581 1 0.930159
0.998581 1 0.930159
6.10361e-05 0.00700389 0.100465
0.0664073 0.000793469 0.0645151
0.237446 0.00634775 0.0678111
0.500191 0.0330663 0.0787823
0.852262 0.0826886 0.146593
1 0.391318 0.362783
1 0.659709 0.624857
1 0.676661 0.646937
1 0.676661 0.646937
0.00149538 0.0567788 0.058732
0.0549783 0.0579385 0.0626688
0.244068 0.0401617 0.053727
0.498711 0.0499886 0.0650187
0.846403 0.0994125 0.137438
1 0.39353 0.361547
1 0.660258 0.625101
1 0.677302 0.647181
1 0.677302 0.647181
0.00645457 0.219547 0.0883955
0.0207675 0.221515 0.0712444
0.215564 0.222019 0.0336614
0.487312 0.212894 0.0382849
0.857588 0.159243 0.0993057
1 0.40943 0.36231
1 0.665415 0.628504
1 0.682399 0.650477
1 0.682399 0.650477
0.0222171 0.453925 0.145418
0.037705 0.452964 0.129641
0.145434 0.458198 0.0456703
0.440192 0.453132 0.0454414
0.799451 0.422324 0.09691
1 0.474815 0.36939
1 0.690074 0.647913
1 0.704402 0.66862
1 0.704402 0.66862
0.0495766 0.718578 0.249241
0.0605173 0.719539 0.240543
0.0990921 0.726162 0.195758
0.324331 0.732601 0.106279
0.692027 0.712032 0.112764
1 0.66833 0.381506
1 0.756069 0.695399
1 0.767544 0.719417
1 0.767544 0.719417
0.116457 0.974762 0.364675
0.12134 0.975235 0.362356
0.152026 0.978424 0.346807
0.231235 0.986343 0.305531
0.50721 0.983642 0.24416
0.90927 0.935164 0.232822
1 0.891386 0.796338
1 0.892973 0.820645
1 0.892973 0.820645
0.842161 1 0.845716
0.842252 1 0.84567
0.843183 1 0.845975
0.847303 1 0.847669
0.862226 1 0.853605
0.910033 1 0.873335
0.999573 1 0.93228
0.999237 1 0.923552
0.999237 1 0.923552
0.848402 1 0.856062
0.848539 1 0.856092
0.849683 1 0.856764
0.854643 1 0.859892
0.86894 1 0.868009
0.910994 1 0.889601
0.995331 1 0.925124
0.998581 1 0.930251
0.998581 1 0.930251
0.848402 1 0.856062
0.848539 1 0.856092
0.849683 1 0.856764
0.854643 1 0.859892
0.86894 1 0.868009
0.910994 1 0.889601
0.995331 1 0.925124
0.998581 1 0.930251
0.998581 1 0.930251
0.000869764 0.0585336 0.321386
0.0372625 0.00570687 0.306264
0.242313 0.00753796 0.237598
0.495598 0.0349889 0.23563
0.850065 0.0821241 0.210788
1 0.3906 0.380514
1 0.659998 0.631388
1 0.67982 0.655222
1 0.67982 0.655222
0.00605783 0.0687419 0.223545
0.0465248 0.0462806 0.247135
0.241459 0.0339208 0.239078
0.495491 0.0509194 0.233066
0.845533 0.0961929 0.211383
1 0.392142 0.379767
1 0.660334 0.631403
1 0.680293 0.655344
1 0.680293 0.655344
0.00874342 0.220737 0.225589
0.0250553 0.221347 0.227222
0.213077 0.219455 0.229679
0.496422 0.198032 0.216999
0.852583 0.163317 0.195346
1 0.406073 0.378424
1 0.663767 0.632593
1 0.684474 0.65716
1 0.684474 0.65716
0.0178683 0.452583 0.257038
0.0362402 0.451713 0.252598
0.12105 0.456413 0.215305
0.436805 0.448325 0.186847
0.813046 0.414084 0.16733
1 0.47071 0.386206
1 0.685512 0.647242
1 0.7037 0.670222
1 0.7037 0.670222
0.0122835 0.718791 0.299855
0.0258183 0.71899 0.295689
0.107424 0.724117 0.259907
0.29662 0.737087 0.156283
0.692531 0.711452 0.158846
1 0.66627 0.398901
1 0.754528 0.697581
1 0.769757 0.722759
1 0.769757 0.722759
0.0980545 0.973495 0.387106
0.1028 0.973922 0.385092
0.137957 0.977188 0.369955
0.244266 0.985397 0.327092
0.509819 0.982956 0.270283
0.909468 0.934997 0.251255
1 0.891035 0.798154
1 0.89395 0.821668
1 0.89395 0.821668
0.842908 1 0.847578
0.843122 1 0.847639
0.844282 1 0.847761
0.848234 1 0.848615
0.863172 1 0.854444
0.910719 1 0.873793
0.999496 1 0.930465
0.999237 1 0.924697
0.999237 1 0.924697
0.849134 1 0.857527
0.849271 1 0.857557
0.85034 1 0.857847
0.855253 1 0.860426
0.869459 1 0.868315
0.911376 1 0.889097
0.995392 1 0.925917
0.998657 1 0.930907
0.998657 1 0.930907
0.849134 1 0.857527
0.849271 1 0.857557
0.85034 1 0.857847
0.855253 1 0.860426
0.869459 1 0.868315
0.911376 1 0.889097
0.995392 1 0.925917
0.998657 1 0.930907
0.998657 1 0.930907
0.00952163 0.1346 0.579614
0.0107576 0.105898 0.58648
0.215183 0.0344091 0.554528
0.49485 0.0455177 0.486397
0.833906 0.0916152 0.454627
1 0.391363 0.444144
1 0.664027 0.644648
1 0.685893 0.668223
1 0.685893 0.668223
0.0166018 0.129702 0.530709
0.0191348 0.104295 0.543435
0.219196 0.0533303 0.533913
0.494255 0.0574044 0.485786
0.831647 0.103975 0.454994
1 0.39292 0.445228
1 0.664317 0.644755
1 0.686427 0.668589
1 0.686427 0.668589
0.0263676 0.231525 0.471977
0.045594 0.229816 0.47097
0.203159 0.207324 0.502342
0.487587 0.189487 0.486229
0.839628 0.165011 0.452796
1 0.406943 0.451102
1 0.66717 0.646357
1 0.690867 0.671839
1 0.690867 0.671839
0.022446 0.45156 0.460533
0.042771 0.45069 0.459983
0.129625 0.45066 0.462913
0.431998 0.441489 0.456703
0.790524 0.417945 0.44036
1 0.467323 0.455573
1 0.684169 0.659373
1 0.708598 0.686656
1 0.708598 0.686656
0.0145266 0.716243 0.449241
0.0287175 0.716274 0.44918
0.114839 0.719097 0.443687
0.307713 0.727947 0.413947
0.686366 0.702693 0.408377
1 0.661082 0.467414
1 0.756863 0.716884
1 0.770947 0.736843
1 0.770947 0.736843
0.00228885 0.971557 0.437125
0.0108034 0.971878 0.436576
0.0708934 0.97438 0.432151
0.219562 0.983108 0.410727
0.500694 0.982162 0.361532
0.909453 0.933547 0.323964
1 0.890272 0.809094
1 0.895994 0.831205
1 0.895994 0.831205
0.844862 1 0.854063
0.845014 1 0.854093
0.846235 1 0.854383
0.85214 1 0.85655
0.866941 1 0.860807
0.912795 1 0.877974
0.999023 1 0.925948
0.999283 1 0.929335
0.999283 1 0.929335
0.854398 1 0.866484
0.854459 1 0.866468
0.855055 1 0.866392
0.858778 1 0.867323
0.873365 1 0.873899
0.913207 1 0.892241
0.995636 1 0.929213
0.998962 1 0.933684
0.998962 1 0.933684
0.854398 1 0.866484
0.854459 1 0.866468
0.855055 1 0.866392
0.858778 1 0.867323
0.873365 1 0.873899
0.913207 1 0.892241
0.995636 1 0.929213
0.998962 1 0.933684
0.998962 1 0.933684
0.0527504 0.229633 0.90312
0.055024 0.220035 0.909682
0.151415 0.170642 0.929717
0.45156 0.14696 0.880858
0.808789 0.13463 0.795697
1 0.40267 0.66537
1 0.675959 0.693736
1 0.697124 0.706752
1 0.697124 0.706752
0.0605631 0.232654 0.891859
0.0628367 0.223499 0.89868
0.157229 0.179217 0.918868
0.452186 0.157427 0.875242
0.808957 0.140444 0.79588
1 0.404532 0.665919
1 0.676265 0.693858
1 0.697673 0.707179
1 0.697673 0.707195
0.0972457 0.274952 0.843671
0.103975 0.269001 0.845716
0.172305 0.236347 0.877089
0.451316 0.221012 0.854932
0.810224 0.185122 0.798611
1 0.418845 0.668818
1 0.679118 0.695033
1 0.702235 0.710643
1 0.702235 0.710643
0.0701762 0.438636 0.798932
0.0817273 0.440085 0.795224
0.151751 0.439811 0.800931
0.417395 0.427771 0.807141
0.771344 0.406897 0.769162
1 0.476081 0.672847
1 0.695384 0.702831
1 0.71989 0.72192
1 0.71989 0.72192
0.0267033 0.709712 0.723842
0.0419318 0.709667 0.723751
0.124788 0.710109 0.724804
0.316777 0.709972 0.728069
0.677501 0.687541 0.7037
1 0.660563 0.679789
1 0.748669 0.734081
1 0.766705 0.752544
1 0.766705 0.752544
0.0303044 0.965499 0.630488
0.0400397 0.965667 0.630777
0.0951247 0.967025 0.632319
0.235233 0.972168 0.631296
0.546899 0.955947 0.633219
0.893736 0.912322 0.626383
1 0.889601 0.835859
1 0.894804 0.85185
1 0.894804 0.85185
0.854963 1 0.87097
0.85507 1 0.871015
0.855848 1 0.871366
0.859998 1 0.873686
0.875914 1 0.882628
0.915129 1 0.89424
0.997147 1 0.936522
0.999527 1 0.942321
0.999527 1 0.942321
0.892012 1 0.902312
0.892027 1 0.902327
0.892317 1 0.902571
0.895918 1 0.905623
0.893553 1 0.903441
0.919692 1 0.908324
0.996292 1 0.940063
0.999283 1 0.945953
0.999283 1 0.945953
0.892012 1 0.902312
0.892027 1 0.902327
0.892317 1 0.902571
0.895918 1 0.905623
0.893553 1 0.903456
0.919692 1 0.908324
0.996292 1 0.940063
0.999283 1 0.945953
0.999283 1 0.945953
0.399207 0.493248 1
0.400809 0.493019 1
0.413245 0.491402 1
0.470909 0.487221 1
0.674113 0.481926 1
1 0.470253 0.984726
1 0.716655 0.831403
1 0.733654 0.833494
1 0.733654 0.833494
0.399237 0.493874 1
0.400839 0.49366 1
0.413367 0.492088 1
0.471199 0.488029 1
0.674266 0.48307 1
1 0.47155 0.984466
1 0.716991 0.831495
1 0.734173 0.833753
1 0.734173 0.833753
0.400076 0.499855 1
0.40177 0.499687 1
0.414755 0.498405 1
0.473594 0.495003 1
0.674327 0.492622 1
1 0.480903 0.983993
1 0.71986 0.832425
1 0.738262 0.835752
1 0.738262 0.835752
0.419684 0.547921 1
0.419242 0.546075 1
0.425437 0.539284 0.999954
0.479606 0.535683 1
0.67306 0.533913 0.999344
1 0.517479 0.987106
1 0.734646 0.837324
1 0.758221 0.844678
1 0.758221 0.844678
0.419516 0.674571 1
0.420478 0.67509 1
0.430121 0.678233 0.999084
0.487007 0.681773 0.994247
0.659251 0.674968 0.993484
0.987396 0.651865 0.980346
1 0.784039 0.854826
1 0.802441 0.861295
1 0.802441 0.861295
0.0732128 0.940581 0.959838
0.0793317 0.940627 0.959838
0.118776 0.940932 0.959945
0.238575 0.94136 0.960662
0.545892 0.924376 0.94406
0.878767 0.886946 0.900145
1 0.895933 0.900023
1 0.899306 0.901854
1 0.899306 0.901854
0.875547 1 0.915785
0.875639 1 0.915816
0.876417 1 0.916167
0.880247 1 0.917494
0.894835 1 0.921645
0.927993 1 0.934691
0.997986 1 0.965194
1 1 0.97261
1 1 0.97261
0.919875 1 0.93254
0.920089 1 0.932662
0.921721 1 0.9337
0.931609 1 0.940261
0.959548 1 0.962646
0.987762 1 0.988159
0.997604 1 0.970092
0.99971 1 0.976684
0.99971 1 0.976684
0.919875 1 0.93254
0.920089 1 0.932662
0.921721 1 0.9337
0.931609 1 0.940261
0.959548 1 0.962646
0.987762 1 0.988159
0.997604 1 0.970092
0.99971 1 0.976684
0.99971 1 0.976684
0.64477 0.705226 1
0.645106 0.705257 1
0.647684 0.705455 1
0.658915 0.706386 1
0.704265 0.71368 1
0.840543 0.74786 1
1 0.827512 0.989776
1 0.83537 0.983703
1 0.83537 0.983703
0.64509 0.705623 1
0.645426 0.705638 1
0.648005 0.705852 1
0.659236 0.706798 1
0.704555 0.714076 1
0.840742 0.74815 1
1 0.827802 0.989776
1 0.835584 0.983688
1 0.835584 0.983673
0.647593 0.708675 1
0.647913 0.708705 1
0.650492 0.708919 1
0.661723 0.709911 1
0.706935 0.718105 1
0.842069 0.750942 1
1 0.830152 0.989914
1 0.837919 0.983902
1 0.837919 0.983902
0.666377 0.730144 1
0.66627 0.729747 1
0.666712 0.728054 1
0.676555 0.728679 1
0.717632 0.73666 1
0.845762 0.767224 1
1 0.841398 0.991272
1 0.848997 0.985489
1 0.848997 0.985489
0.731212 0.796201 1
0.73135 0.796185 1
0.731655 0.795438 1
0.738231 0.796231 1
0.76643 0.80264 1
0.860975 0.823087 1
1 0.882963 0.996582
1 0.892027 0.992676
1 0.892027 0.992676
0.794354 0.878508 1
0.794598 0.878599 1
0.796521 0.87924 1
0.806699 0.881926 1
0.850065 0.898711 1
0.93698 0.94696 1
1 1 1
1 0.928298 0.992325
1 0.928298 0.992325
0 0 0
0 0 0
0.902968 1 0.999359
0.906233 1 0.99942
0.917189 1 0.999619
0.949035 1 0.999908
1 1 1
1 1 1
1 1 1
0.907561 1 0.998444
0.907668 1 0.998444
0.908415 1 0.998459
0.91162 1 0.998535
0.922332 1 0.998749
0.952773 1 0.999329
1 1 1
1 1 1
1 1 1
0.907561 1 0.998444
0.907668 1 0.998444
0.908415 1 0.998459
0.91162 1 0.998535
0.922332 1 0.998749
0.952773 1 0.999329
1 1 1
1 1 1
1 1 1
0.64477 0.705226 1
0.645106 0.705257 1
0.647684 0.705455 1
0.658915 0.706386 1
0.704265 0.71368 1
0.840543 0.74786 1
1 0.827512 0.989776
1 0.83537 0.983703
1 0.83537 0.983703
0.64509 0.705623 1
0.645426 0.705638 1
0.648005 0.705852 1
0.659236 0.706798 1
0.704555 0.714076 1
0.840742 0.74815 1
1 0.827802 0.989776
1 0.835584 0.983688
1 0.835584 0.983673
0.647593 0.708675 1
0.647913 0.708705 1
0.650492 0.708919 1
0.661723 0.709911 1
0.706935 0.718105 1
0.842069 0.750942 1
1 0.830152 0.989914
1 0.837919 0.983902
1 0.837919 0.983902
0.666392 0.730144 1
0.66627 0.729763 1
0.666712 0.728054 1
0.676555 0.728679 1
0.717632 0.73666 1
0.845762 0.767224 1
1 0.841398 0.991272
1 0.848997 0.985489
1 0.848997 0.985489
0.731212 0.796201 1
0.73135 0.796185 1
0.731655 0.795438 1
0.738231 0.796216 1
0.76643 0.80264 1
0.860975 0.823087 1
1 0.882963 0.996582
1 0.892027 0.992676
1 0.892027 0.992676
0.794354 0.878508 1
0.794598 0.878599 1
0.796521 0.87924 1
0.806699 0.881926 1
0.850065 0.898711 1
0.93698 0.94696 1
1 1 1
1 0.928298 0.992325
1 0.928298 0.992325
0 0 0
0 0 0
0.902968 1 0.999359
0.906233 1 0.99942
0.917189 1 0.999619
0.949035 1 0.999908
1 1 1
1 1 1
1 1 1
0.907561 1 0.998444
0.907668 1 0.998444
0.908415 1 0.998459
0.91162 1 0.998535
0.922332 1 0.998749
0.952773 1 0.999329
1 1 1
1 1 1
1 1 1
0.907561 1 0.998444
0.907668 1 0.998444
0.908415 1 0.998459
0.91162 1 0.998535
0.922332 1 0.998749
0.952773 1 0.999329
1 1 1
1 1 1
1 1 1
0.64477 0.705226 1
0.645106 0.705257 1
0.647684 0.705455 1
0.658915 0.706386 1
0.704265 0.71368 1
0.840543 0.74786 1
1 0.827512 0.989776
1 0.83537 0.983703
1 0.83537 0.983703
0.64509 0.705623 1
0.645426 0.705638 1
0.648005 0.705852 1
0.659236 0.706798 1
0.704555 0.714076 1
0.840742 0.74815 1
1 0.827802 0.989776
1 0.835584 0.983688
1 0.835584 0.983673
0.647593 0.708675 1
0.647913 0.708705 1
0.650492 0.708919 1
0.661723 0.709911 1
0.706935 0.718105 1
0.842069 0.750942 1
1 0.830152 0.989914
1 0.837903 0.983902
1 0.837919 0.983902
0.666377 0.730144 1
0.66627 0.729747 1
0.666712 0.728054 1
0.676555 0.728679 1
0.717632 0.73666 1
0.845762 0.767224 1
1 0.841398 0.991272
1 0.848997 0.985489
1 0.848997 0.985489
0.731212 0.796201 1
0.73135 0.796185 1
0.731655 0.795438 1
0.738231 0.796216 1
0.76643 0.80264 1
0.860975 0.823087 1
1 0.882963 0.996582
1 0.892027 0.992676
1 0.892027 0.992676
0.794354 0.878508 1
0.794598 0.878599 1
0.796521 0.87924 1
0.806699 0.881926 1
0.850065 0.898711 1
0.93698 0.94696 1
1 1 1
1 0.928298 0.992325
1 0.928298 0.992325
0 0 0
0 0 0
0.902968 1 0.999359
0.906233 1 0.99942
0.917189 1 0.999619
0.949035 1 0.999908
1 1 1
1 1 1
1 1 1
0.907561 1 0.998444
0.907668 1 0.998444
0.908415 1 0.998459
0.91162 1 0.998535
0.922332 1 0.998749
0.952773 1 0.999329
1 1 1
1 1 1
1 1 1
0.907561 1 0.998444
0.907668 1 0.998444
0.908431 1 0.998459
0.91162 1 0.998535
0.922332 1 0.998749
0.952773 1 0.999329
1 1 1
1 1 1
1 1 1
