ACES20_P3D65PQ1000D60_to_sRGBPW.cube
TITLE "Generated by Resolve"
LUT_3D_SIZE 33
0 0 0
0.00268559 3.0518e-05 6.10361e-05
0.0125277 0.000122072 0.000244144
0.0340887 0.000289921 0.00062562
0.0676127 0.000564584 0.00128176
0.105303 0.00102235 0.00236515
0.147417 0.00180056 0.00410468
0.194308 0.00309758 0.0068513
0.24622 0.00521859 0.0110781
0.303365 0.00854505 0.0173648
0.365789 0.0135653 0.0265049
0.433478 0.0208438 0.0393835
0.506325 0.0309911 0.0551308
0.584146 0.0445563 0.0722362
0.666743 0.0599374 0.0907149
0.75378 0.0767224 0.110582
0.844831 0.0939803 0.131701
0.940414 0.11574 0.156344
0.997421 0.214893 0.218006
1 0.312825 0.290761
1 0.392233 0.358419
1 0.461799 0.422507
1 0.526619 0.485557
1 0.590845 0.550713
1 0.659892 0.624094
1 0.676387 0.64596
1 0.676387 0.64596
1 0.676387 0.64596
1 0.676387 0.64596
1 0.676387 0.64596
1 0.676387 0.64596
1 0.676387 0.64596
1 0.676387 0.64596
1.5259e-05 0.00202945 0.00015259
0.00207523 0.00221256 1.5259e-05
0.0113375 0.0021973 7.62951e-05
0.0334936 0.00157168 0.000183108
0.0683452 0.000885023 0.00047303
0.105745 0.00132753 0.00157168
0.147723 0.00207523 0.00332647
0.194507 0.00337224 0.00607309
0.246372 0.00549325 0.0102998
0.303487 0.00883497 0.0166171
0.365896 0.0138705 0.0257877
0.433585 0.0211643 0.0386969
0.506416 0.0313268 0.054612
0.584222 0.0448768 0.0718547
0.666819 0.0602121 0.090425
0.753857 0.0769665 0.110369
0.8448 0.094316 0.131472
0.940337 0.116182 0.15613
0.997345 0.215152 0.217868
1 0.312947 0.290684
1 0.392309 0.358373
1 0.46186 0.422492
1 0.526665 0.485557
1 0.590875 0.550729
1 0.659907 0.624109
1 0.676417 0.645975
1 0.676417 0.645975
1 0.676417 0.645975
1 0.676417 0.645975
1 0.676417 0.645975
1 0.676417 0.645975
1 0.676417 0.645975
1 0.676417 0.645975
9.15541e-05 0.00956741 0.000686656
0.00129702 0.0101625 9.15541e-05
0.00970474 0.0103456 7.62951e-05
0.0291752 0.010605 0.000167849
0.0635538 0.0101472 0.000366217
0.103487 0.00831617 0.000610361
0.148196 0.00515755 0.000976577
0.195804 0.00457771 0.00309758
0.247349 0.00665293 0.00746166
0.304173 0.0099794 0.0138857
0.36643 0.0150301 0.0231632
0.433997 0.0223697 0.0362097
0.506767 0.032578 0.0527047
0.584527 0.0460822 0.0704204
0.667094 0.0612497 0.0893721
0.754086 0.0778821 0.109606
0.844877 0.0953841 0.130785
0.940124 0.117693 0.155428
0.997086 0.216083 0.217411
1 0.31342 0.290394
1 0.392615 0.358251
1 0.462074 0.422461
1 0.526818 0.485588
1 0.590982 0.550774
1 0.659998 0.624155
1 0.676509 0.646036
1 0.676509 0.646036
1 0.676509 0.646036
1 0.676509 0.646036
1 0.676509 0.646036
1 0.676509 0.646036
1 0.676509 0.646036
1 0.676509 0.646036
0.000244144 0.0263371 0.00177005
0.000442512 0.0273442 0.00062562
0.00808728 0.0278935 0.000198367
0.026566 0.0283207 0.000167849
0.0588846 0.0289769 0.00030518
0.0978408 0.0288701 0.000640879
0.14229 0.0268864 0.00111391
0.192142 0.0220493 0.00177005
0.247425 0.0149386 0.0028687
0.306065 0.0125124 0.00727855
0.36791 0.0179446 0.0171969
0.435096 0.0252232 0.0306401
0.507652 0.035462 0.0483101
0.585275 0.0487373 0.067216
0.66772 0.0635538 0.0870222
0.754635 0.0798962 0.107881
0.84538 0.0972305 0.129564
0.940032 0.120333 0.154269
0.996628 0.21799 0.216587
1 0.314443 0.289876
1 0.393286 0.358022
1 0.462531 0.422415
1 0.527153 0.485634
1 0.591241 0.550896
1 0.660212 0.624323
1 0.676692 0.646189
1 0.676692 0.646189
1 0.676692 0.646189
1 0.676692 0.646189
1 0.676692 0.646189
1 0.676692 0.646189
1 0.676692 0.646189
1 0.676692 0.646189
0.000518807 0.0556039 0.00378424
0.000686656 0.0563516 0.00262455
0.00526436 0.0577554 0.000442512
0.0236362 0.0581369 0.000411994
0.0557107 0.0587167 0.000350958
0.0932937 0.0596017 0.000549325
0.136431 0.0598764 0.00109865
0.185672 0.0582895 0.00195315
0.24097 0.0533913 0.0031281
0.302098 0.0435187 0.00500496
0.368917 0.0300755 0.0078584
0.43743 0.03093 0.0195621
0.509499 0.0414893 0.0390784
0.586725 0.0538186 0.0607919
0.668925 0.0679026 0.0824598
0.755673 0.0836652 0.104631
0.846326 0.100649 0.127291
0.940673 0.123812 0.152865
0.996246 0.221073 0.215793
1 0.316228 0.289265
1 0.394476 0.357733
1 0.463371 0.4224
1 0.527764 0.485786
1 0.591714 0.551125
1 0.660594 0.624628
1 0.677058 0.646464
1 0.677058 0.646464
1 0.677058 0.646464
1 0.677043 0.646464
1 0.677058 0.646464
1 0.677058 0.646464
1 0.677043 0.646464
1 0.677043 0.646464
0.000946059 0.0901808 0.00720226
0.00111391 0.0906539 0.00605783
0.00192264 0.0923171 0.00167849
0.0188602 0.0928359 0.000808728
0.0516976 0.0932326 0.000762951
0.0899367 0.0938582 0.000656138
0.131792 0.0947585 0.000976577
0.179568 0.0951858 0.00183108
0.233967 0.0939345 0.00331121
0.294896 0.0896773 0.00531014
0.362036 0.0808728 0.00833143
0.43505 0.0666972 0.0128939
0.513252 0.049836 0.0199893
0.589441 0.0628367 0.0481727
0.671092 0.0755627 0.0740826
0.757427 0.0902266 0.0988632
0.847898 0.106538 0.123369
0.941756 0.129656 0.150576
0.996201 0.225528 0.215473
1 0.318914 0.289113
1 0.396368 0.357687
1 0.464759 0.422553
1 0.528817 0.486107
1 0.592523 0.551598
1 0.661265 0.625132
1 0.677638 0.646937
1 0.677638 0.646937
1 0.677638 0.646937
1 0.677638 0.646937
1 0.677638 0.646937
1 0.677638 0.646937
1 0.677638 0.646937
1 0.677638 0.646937
0.00167849 0.128939 0.0127871
0.00181582 0.129244 0.0116121
0.00251774 0.130343 0.00727855
0.0112306 0.131746 0.00148013
0.0449378 0.132006 0.00143435
0.0855116 0.132387 0.00135805
0.128069 0.133028 0.0011902
0.174624 0.133837 0.00173953
0.227436 0.134203 0.00308232
0.287236 0.132952 0.00549325
0.353933 0.128817 0.00880446
0.427161 0.120287 0.0135042
0.506325 0.105928 0.0206302
0.590738 0.088716 0.0309453
0.674876 0.0880446 0.0579843
0.760342 0.101228 0.088838
0.850401 0.116228 0.116838
0.943328 0.139315 0.147005
0.996139 0.232547 0.214969
1 0.323033 0.28925
1 0.399207 0.358175
1 0.46688 0.423224
1 0.530449 0.4869
1 0.593835 0.552422
1 0.662318 0.625925
1 0.678584 0.647669
1 0.678584 0.647669
1 0.678584 0.647669
1 0.678584 0.647669
1 0.678584 0.647669
1 0.678584 0.647669
1 0.678584 0.647669
1 0.678584 0.647669
0.00285344 0.172122 0.0215457
0.00299077 0.172335 0.0203708
0.00361639 0.173068 0.016022
0.00543221 0.174624 0.00628672
0.0333104 0.17528 0.00256352
0.0783551 0.175509 0.00248722
0.123018 0.175845 0.00236515
0.170336 0.17644 0.002121
0.221942 0.17702 0.00303655
0.280095 0.177096 0.00514229
0.34551 0.175525 0.00889601
0.418067 0.171023 0.0141146
0.49723 0.162234 0.0213779
0.582437 0.147692 0.0319982
0.672633 0.130129 0.0477455
0.766003 0.116609 0.0685435
0.85417 0.131792 0.105989
0.94522 0.154894 0.141833
0.996002 0.243214 0.214237
1 0.329366 0.289479
1 0.40354 0.358968
1 0.470085 0.424292
1 0.532921 0.488106
1 0.595819 0.553658
1 0.663905 0.627146
1 0.680018 0.648814
1 0.680018 0.648814
1 0.680018 0.648814
1 0.680018 0.648814
1 0.680018 0.648814
1 0.680018 0.648814
1 0.680018 0.648814
1 0.680018 0.648814
0.00474556 0.219883 0.0349279
0.00486763 0.220035 0.033753
0.00547799 0.220539 0.0294194
0.00706493 0.221637 0.0197757
0.0154421 0.223239 0.00445563
0.0664988 0.223331 0.00437934
0.115114 0.223484 0.00425727
0.164385 0.223728 0.00407416
0.216846 0.224216 0.00375372
0.273747 0.224369 0.0052491
0.337469 0.22385 0.00848402
0.408637 0.221576 0.0140536
0.486915 0.216358 0.0221866
0.571862 0.206867 0.0332341
0.662806 0.192111 0.0486
0.758556 0.173678 0.0674449
0.857313 0.160479 0.0909895
0.947265 0.178408 0.134096
0.995743 0.258976 0.213199
1 0.338872 0.28986
1 0.41004 0.360159
1 0.474861 0.425925
1 0.536614 0.489906
1 0.598749 0.55552
1 0.66627 0.628977
1 0.682139 0.650523
1 0.682139 0.650523
1 0.682139 0.650523
1 0.682139 0.650523
1 0.682139 0.650523
1 0.682139 0.650523
1 0.682139 0.650523
1 0.682139 0.650523
0.00767529 0.272206 0.0532845
0.00781262 0.272312 0.0523079
0.00834669 0.272679 0.0486
0.00981155 0.273457 0.0397192
0.013077 0.274846 0.0219272
0.0453498 0.275883 0.00741588
0.10248 0.275898 0.00730907
0.155276 0.275929 0.00714122
0.209583 0.276005 0.00689708
0.267521 0.276265 0.00650034
0.3299 0.275746 0.00886549
0.399268 0.274327 0.0137942
0.476143 0.27097 0.0218967
0.560098 0.264561 0.0337987
0.650492 0.254139 0.0499428
0.746578 0.238941 0.068452
0.847639 0.220417 0.0906996
0.945846 0.216449 0.12607
0.996384 0.279332 0.209506
1 0.352865 0.290501
1 0.419593 0.361975
1 0.481865 0.428367
1 0.542 0.492576
1 0.603021 0.558251
1 0.669688 0.631632
1 0.685191 0.652995
1 0.685191 0.652995
1 0.685191 0.652995
1 0.685191 0.652995
1 0.685191 0.652995
1 0.685191 0.652995
1 0.685191 0.652995
1 0.685191 0.652995
0.0119631 0.328817 0.07393
0.0121462 0.328893 0.0731823
0.0126955 0.329168 0.0703593
0.0140536 0.329747 0.0638285
0.0169375 0.3308 0.0501717
0.0231479 0.332464 0.021622
0.0814679 0.332891 0.0120699
0.141238 0.332769 0.0119173
0.198779 0.332601 0.0117189
0.258442 0.332418 0.011429
0.322103 0.332326 0.011017
0.390036 0.330831 0.0146334
0.465003 0.32813 0.0219425
0.547463 0.323339 0.0335851
0.636896 0.315389 0.0498207
0.73257 0.303456 0.0682383
0.833875 0.287617 0.090013
0.937179 0.272694 0.121431
0.994369 0.31046 0.20557
1 0.369818 0.288045
1 0.43331 0.364553
1 0.491997 0.431907
1 0.549722 0.496468
1 0.609125 0.562203
1 0.674571 0.635462
1 0.689525 0.65655
1 0.689525 0.65655
1 0.689525 0.65655
1 0.689525 0.65655
1 0.689525 0.65655
1 0.689525 0.65655
1 0.689525 0.65655
1 0.689525 0.65655
0.0175784 0.389334 0.0970169
0.0178836 0.389349 0.0962997
0.0188144 0.389471 0.093904
0.0200504 0.389929 0.0889601
0.022858 0.390768 0.0792554
0.0280919 0.392126 0.0599527
0.0411383 0.39408 0.0192111
0.118975 0.393851 0.019089
0.182635 0.39353 0.0189364
0.245335 0.393088 0.0187381
0.310582 0.392523 0.0184787
0.380118 0.391913 0.0181735
0.453529 0.38909 0.0235294
0.533974 0.384771 0.034165
0.621805 0.378195 0.0498817
0.716365 0.368444 0.0684367
0.817075 0.355138 0.0897688
0.922499 0.339834 0.117449
0.989029 0.355322 0.2009
1 0.397864 0.288014
1 0.448829 0.363668
1 0.50547 0.436011
1 0.560693 0.502068
1 0.617761 0.567819
1 0.681422 0.640909
1 0.695567 0.661616
1 0.695567 0.661616
1 0.695567 0.661616
1 0.695567 0.661616
1 0.695567 0.661616
1 0.695567 0.661616
1 0.695567 0.661616
1 0.695567 0.661616
0.0243687 0.452995 0.12253
0.0247501 0.452995 0.121859
0.0260777 0.45301 0.11957
0.0282444 0.453239 0.115297
0.0305943 0.453956 0.108019
0.0354314 0.455116 0.0946822
0.0444038 0.456886 0.0690318
0.0806134 0.458595 0.0294347
0.158175 0.458167 0.0293736
0.226398 0.457557 0.0292973
0.294469 0.456718 0.0291905
0.365438 0.455619 0.0291142
0.440848 0.454276 0.0291295
0.5196 0.449836 0.0368658
0.605295 0.443549 0.0510567
0.698222 0.434958 0.0688945
0.797681 0.423362 0.0899214
0.902846 0.409277 0.116075
0.981796 0.410819 0.191684
1 0.437903 0.288075
1 0.475303 0.367178
1 0.521004 0.437812
1 0.57409 0.507744
1 0.629816 0.575814
1 0.690898 0.648417
1 0.703975 0.668498
1 0.703975 0.668498
1 0.703975 0.668498
1 0.703975 0.668498
1 0.703975 0.668498
1 0.703975 0.668498
1 0.703975 0.668498
1 0.703975 0.668498
0.032105 0.518853 0.150149
0.0325322 0.518853 0.149554
0.0340581 0.518853 0.147463
0.0370794 0.518944 0.143343
0.0408179 0.519402 0.137179
0.044892 0.520424 0.127428
0.0519875 0.522026 0.110231
0.0639963 0.524361 0.07776
0.119005 0.525765 0.0437934
0.198917 0.525063 0.0438544
0.272068 0.524056 0.0439612
0.345617 0.522683 0.0441444
0.422263 0.520851 0.0444495
0.503426 0.518532 0.0450599
0.587289 0.512169 0.054551
0.677943 0.503731 0.0705119
0.775723 0.49308 0.0907759
0.879637 0.480003 0.115999
0.972854 0.471534 0.175311
1 0.487892 0.286351
1 0.512566 0.371847
1 0.546197 0.444312
1 0.589776 0.512337
1 0.643137 0.583169
1 0.703883 0.658885
1 0.715434 0.678203
1 0.715434 0.678203
1 0.715434 0.678203
1 0.715434 0.678203
1 0.715434 0.678203
1 0.715434 0.678203
1 0.715434 0.678203
1 0.715434 0.678203
0.0402838 0.585809 0.179339
0.0408026 0.585809 0.178836
0.0424048 0.585855 0.177035
0.0455634 0.585977 0.173312
0.0504616 0.586282 0.16733
0.0551308 0.587106 0.159472
0.0608377 0.588556 0.147173
0.070161 0.590738 0.12604
0.0852827 0.593851 0.086244
0.15758 0.594751 0.0605631
0.240955 0.593637 0.0608682
0.319127 0.592111 0.0612497
0.398062 0.590021 0.0617838
0.480217 0.587243 0.0626078
0.566842 0.583658 0.063859
0.655512 0.575189 0.074342
0.750957 0.564599 0.0926833
0.853223 0.552087 0.116655
0.957641 0.538293 0.153689
1 0.543709 0.28072
1 0.558999 0.376944
1 0.581521 0.453391
1 0.614221 0.521965
1 0.659129 0.590723
1 0.718288 0.669596
1 0.730983 0.691447
1 0.730983 0.691447
1 0.730983 0.691447
1 0.730983 0.691447
1 0.730983 0.691447
1 0.730983 0.691447
1 0.730983 0.691447
1 0.730983 0.691447
0.0474403 0.652796 0.209339
0.0478981 0.652827 0.208927
0.0495613 0.652903 0.207446
0.0530404 0.653101 0.204364
0.0580453 0.653483 0.199023
0.0644999 0.6542 0.191485
0.0694285 0.655512 0.182483
0.0771038 0.657511 0.167666
0.0891432 0.660426 0.142687
0.108232 0.66453 0.0959182
0.19585 0.664683 0.0787976
0.283619 0.662989 0.079469
0.366918 0.660716 0.0803235
0.451087 0.657679 0.0813916
0.538415 0.653696 0.0827192
0.63003 0.648539 0.0846265
0.72314 0.637827 0.0963455
0.823301 0.625437 0.11841
0.928939 0.610864 0.146929
0.994507 0.60473 0.266072
1 0.611185 0.380743
1 0.625238 0.464698
1 0.648142 0.535592
1 0.683024 0.603723
1 0.733791 0.67953
1 0.749905 0.707317
1 0.749905 0.707317
1 0.749905 0.707317
1 0.749905 0.707317
1 0.749905 0.707317
1 0.749905 0.707317
1 0.749905 0.707317
1 0.749905 0.707317
0.0539254 0.718868 0.239612
0.0543221 0.718914 0.239277
0.055787 0.719036 0.238087
0.0588846 0.71931 0.235554
0.0642405 0.719814 0.231159
0.0714733 0.720638 0.224384
0.0772106 0.721859 0.216754
0.083772 0.723705 0.206058
0.0937514 0.726421 0.188922
0.108843 0.730297 0.160433
0.133028 0.735592 0.108019
0.233494 0.734737 0.0985428
0.326055 0.732265 0.0996414
0.414466 0.728954 0.100954
0.503731 0.724666 0.102693
0.59588 0.719142 0.10486
0.69192 0.712093 0.107454
0.789609 0.699657 0.121736
0.893431 0.685023 0.147677
0.983871 0.670619 0.230518
1 0.668315 0.379416
1 0.674281 0.476692
1 0.689479 0.552804
1 0.715572 0.621942
1 0.756359 0.695445
1 0.767224 0.719448
1 0.767224 0.719448
1 0.767224 0.719448
1 0.767224 0.719448
1 0.767224 0.719448
1 0.767224 0.719448
1 0.767224 0.719448
1 0.767224 0.719448
0.0629435 0.785061 0.270497
0.0632639 0.785107 0.270253
0.0644541 0.785245 0.269337
0.0670176 0.785565 0.267353
0.0717174 0.78613 0.263828
0.0791028 0.787015 0.258305
0.0869154 0.788251 0.251148
0.0922103 0.789868 0.243229
0.100587 0.792233 0.230991
0.113054 0.79559 0.211765
0.131609 0.80029 0.180407
0.161242 0.806455 0.124437
0.271626 0.804379 0.121386
0.36875 0.800961 0.122972
0.461967 0.796445 0.124834
0.555779 0.790555 0.127062
0.652064 0.782986 0.12961
0.751629 0.773388 0.132326
0.853437 0.759228 0.150088
0.959518 0.742031 0.181643
1 0.729549 0.364126
1 0.727367 0.486168
1 0.73521 0.571954
1 0.754284 0.644404
1 0.78613 0.716793
1 0.791989 0.73843
1 0.791989 0.73843
1 0.791989 0.73843
1 0.791989 0.73843
1 0.791989 0.73843
1 0.791989 0.73843
1 0.791989 0.73843
1 0.791989 0.73843
0.075639 0.850462 0.301274
0.0759289 0.850492 0.301091
0.0770123 0.850614 0.30045
0.0791028 0.850889 0.299001
0.0828565 0.851392 0.296345
0.0890364 0.852232 0.292012
0.0982986 0.853452 0.285603
0.103609 0.854826 0.279484
0.110185 0.856794 0.270466
0.120455 0.859586 0.256947
0.135546 0.863478 0.236027
0.157885 0.868772 0.202701
0.193469 0.87541 0.145892
0.310277 0.871962 0.147585
0.411246 0.867399 0.149676
0.508568 0.861463 0.152117
0.606317 0.853819 0.154879
0.706157 0.844114 0.157977
0.808713 0.831998 0.160937
0.913191 0.81532 0.181735
0.99353 0.795422 0.314168
1 0.783337 0.486381
1 0.783642 0.590127
1 0.795941 0.669169
1 0.82089 0.742412
1 0.823758 0.763363
1 0.823758 0.763363
1 0.823758 0.763348
1 0.823758 0.763363
1 0.823758 0.763363
1 0.823758 0.763363
1 0.823758 0.763348
1 0.823758 0.763348
0.0933547 0.914107 0.331548
0.0935836 0.914122 0.331411
0.0944228 0.914229 0.330953
0.0962387 0.914427 0.329946
0.0995346 0.914809 0.328084
0.104387 0.91548 0.324926
0.111879 0.916487 0.320058
0.118471 0.917708 0.314717
0.124407 0.919234 0.308217
0.132342 0.921477 0.298314
0.144625 0.924559 0.283787
0.162371 0.928771 0.261769
0.188663 0.934295 0.227634
0.233448 0.940414 0.175723
0.350027 0.935943 0.177874
0.453529 0.930098 0.180514
0.553872 0.92256 0.183551
0.654536 0.912978 0.186831
0.756954 0.900999 0.190295
0.861555 0.886229 0.193042
0.967529 0.866926 0.217762
1 0.842649 0.463218
1 0.83328 0.602152
1 0.838468 0.693523
1 0.856626 0.769574
1 0.858778 0.791791
1 0.858778 0.791791
1 0.858778 0.791791
1 0.858778 0.791791
1 0.858778 0.791791
1 0.858778 0.791791
1 0.858778 0.791791
1 0.858778 0.791791
0.119051 0.97496 0.361456
0.119234 0.974975 0.361364
0.11989 0.975036 0.361059
0.121324 0.975174 0.360357
0.123964 0.975418 0.359106
0.128374 0.97583 0.357031
0.134829 0.976501 0.353719
0.142123 0.977371 0.349599
0.148135 0.978408 0.345251
0.157641 0.979843 0.338949
0.171481 0.981781 0.329946
0.193683 0.984085 0.318013
0.227451 0.986481 0.303029
0.276509 0.988342 0.286046
0.34052 0.988968 0.268284
0.420752 0.987106 0.256153
0.505989 0.983841 0.24033
0.599176 0.977615 0.225956
0.699992 0.966812 0.224125
0.803723 0.952529 0.227756
0.909255 0.935195 0.22977
0.995361 0.908904 0.371481
1 0.884413 0.599054
1 0.880415 0.713939
1 0.891432 0.796201
1 0.892805 0.820676
1 0.892805 0.820676
1 0.892805 0.820676
1 0.892805 0.820676
1 0.892805 0.820676
1 0.892805 0.820676
1 0.892805 0.820676
1 0.892805 0.820676
0.376669 1 0.468666
0.376761 1 0.468635
0.377096 1 0.468574
0.377829 1 0.468437
0.379171 1 0.468193
0.381415 1 0.467781
0.384909 1 0.46717
0.38938 1 0.466346
0.393713 1 0.465644
0.400031 1 0.464668
0.409003 1 0.463233
0.421027 1 0.461036
0.437232 1 0.457984
0.45803 1 0.453529
0.484428 1 0.446983
0.518074 1 0.437995
0.565805 1 0.432593
0.621332 1 0.423163
0.685389 1 0.40621
0.759594 0.998398 0.374945
0.847532 0.993378 0.315984
0.951171 0.97818 0.27303
1 0.940566 0.553246
1 0.921965 0.726177
1 0.9243 0.82089
1 0.924392 0.849256
1 0.924392 0.849256
1 0.924392 0.849256
1 0.924392 0.849256
1 0.924392 0.849256
1 0.924392 0.849256
1 0.924392 0.849256
1 0.924392 0.849256
0.567651 1 0.596994
0.567681 1 0.596994
0.567788 1 0.596963
0.568032 1 0.596887
0.56849 1 0.596765
0.569253 1 0.596567
0.570443 1 0.596262
0.572015 1 0.595972
0.573861 1 0.595804
0.576532 1 0.595514
0.580362 1 0.595148
0.585824 1 0.594629
0.593286 1 0.593744
0.603449 1 0.592523
0.616739 1 0.590646
0.63389 1 0.587777
0.656275 1 0.583963
0.689265 1 0.584314
0.728588 1 0.583047
0.774716 1 0.57818
0.828717 1 0.565591
0.893294 1 0.535515
0.976959 1 0.458793
1 0.96524 0.717159
1 0.955215 0.843809
1 0.953063 0.87924
1 0.953063 0.87924
1 0.953063 0.87924
1 0.953063 0.87924
1 0.953063 0.87924
1 0.953063 0.87924
1 0.953063 0.87924
1 0.953063 0.87924
0.713024 1 0.718044
0.713039 1 0.718044
0.713085 1 0.718029
0.713176 1 0.717998
0.713329 1 0.717937
0.713619 1 0.71783
0.714061 1 0.717723
0.714717 1 0.7178
0.715663 1 0.717891
0.717052 1 0.718013
0.719005 1 0.718181
0.721752 1 0.718379
0.725628 1 0.718715
0.730953 1 0.719066
0.738216 1 0.719509
0.747692 1 0.719951
0.759899 1 0.720333
0.775692 1 0.720806
0.798581 1 0.7252
0.825757 1 0.729702
0.85742 1 0.733577
0.893874 1 0.735134
0.936049 1 0.730495
0.987991 1 0.708217
1 0.984115 0.864393
1 0.977722 0.918395
1 0.977722 0.918395
1 0.977722 0.918395
1 0.977722 0.918395
1 0.977722 0.918395
1 0.977722 0.918395
1 0.977722 0.918395
1 0.977722 0.918395
0.842008 1 0.845441
0.842008 1 0.845441
0.842023 1 0.845441
0.842054 1 0.845457
0.84213 1 0.845487
0.842237 1 0.845533
0.84242 1 0.845609
0.84268 1 0.845716
0.843076 1 0.845884
0.843656 1 0.846128
0.844465 1 0.846464
0.845609 1 0.846937
0.847181 1 0.847593
0.849363 1 0.848478
0.852354 1 0.849683
0.856489 1 0.851347
0.862104 1 0.853529
0.869795 1 0.856443
0.88011 1 0.860212
0.892882 1 0.864927
0.909941 1 0.873304
0.929351 1 0.883558
0.950713 1 0.896101
0.973648 1 0.911681
0.999573 1 0.93254
0.999237 1 0.9234
0.999237 1 0.9234
0.999237 1 0.9234
0.999237 1 0.9234
0.999237 1 0.9234
0.999237 1 0.9234
0.999237 1 0.9234
0.999237 1 0.9234
0.84831 1 0.855909
0.84831 1 0.855909
0.848341 1 0.855924
0.848386 1 0.855955
0.848463 1 0.856001
0.8486 1 0.856092
0.848814 1 0.856214
0.849134 1 0.856428
0.849622 1 0.856733
0.850309 1 0.85716
0.851301 1 0.857786
0.852659 1 0.858656
0.854566 1 0.859846
0.85716 1 0.861494
0.860685 1 0.863737
0.86424 1 0.865614
0.868894 1 0.868009
0.875257 1 0.87129
0.883925 1 0.875731
0.895705 1 0.881727
0.910948 1 0.889723
0.930068 1 0.901991
0.951415 1 0.91783
0.974884 1 0.93724
0.995315 1 0.925017
0.998581 1 0.930159
0.998581 1 0.930159
0.998581 1 0.930159
0.998581 1 0.930159
0.998581 1 0.930159
0.998581 1 0.930159
0.998581 1 0.930159
0.998581 1 0.930159
0.84831 1 0.855909
0.84831 1 0.855909
0.848341 1 0.855924
0.848386 1 0.855955
0.848463 1 0.856001
0.8486 1 0.856092
0.848814 1 0.856214
0.849134 1 0.856428
0.849622 1 0.856733
0.850309 1 0.85716
0.851301 1 0.857786
0.852659 1 0.858656
0.854566 1 0.859846
0.85716 1 0.861494
0.860685 1 0.863737
0.86424 1 0.865614
0.868894 1 0.868009
0.875257 1 0.87129
0.883925 1 0.875731
0.895705 1 0.881727
0.910948 1 0.889723
0.930068 1 0.901991
0.951415 1 0.91783
0.974884 1 0.93724
0.995315 1 0.925017
0.998581 1 0.930159
0.998581 1 0.930159
0.998581 1 0.930159
0.998581 1 0.930159
0.998581 1 0.930159
0.998581 1 0.930159
0.998581 1 0.930159
0.998581 1 0.930159
0.84831 1 0.855909
0.84831 1 0.855909
0.848341 1 0.855924
0.848386 1 0.855955
0.848463 1 0.856001
0.8486 1 0.856092
0.848814 1 0.856214
0.849134 1 0.856428
0.849622 1 0.856733
