ACES20_P3D65PQ1000_to_sRGBPW.cube
TITLE "Generated by Resolve"
LUT_3D_SIZE 5
0 0 0
0.242725 0.0047303 0.0113222
0.83389 0.0892805 0.130236
1 0.648173 0.611765
1 0.653132 0.617517
0.00483711 0.215 0.0250248
0.216205 0.21825 0.00276188
0.848463 0.148409 0.0873274
1 0.654444 0.616434
1 0.659281 0.622187
0.0658274 0.71107 0.210758
0.103731 0.718227 0.152575
0.69456 0.700038 0.0995804
1 0.744213 0.680903
1 0.747646 0.686976
0.823362 1 0.814984
0.824857 1 0.815381
0.849729 1 0.821958
0.998383 1 0.882918
0.999344 1 0.88864
0.831113 1 0.823713
0.832517 1 0.82414
0.856107 1 0.830808
0.997101 1 0.894789
0.99855 1 0.895293
0.00155642 0.0372931 0.272251
0.237964 0.00830091 0.222416
0.839139 0.0794537 0.202121
1 0.648386 0.619058
1 0.654139 0.625498
0.00920119 0.217151 0.21474
0.214984 0.214984 0.214984
0.84213 0.156374 0.183993
1 0.652171 0.620172
1 0.657694 0.626551
0.0294499 0.710216 0.280659
0.119463 0.716167 0.228733
0.695659 0.69929 0.145968
1 0.742473 0.683192
1 0.746075 0.689357
0.82388 1 0.817777
0.824979 1 0.81738
0.849577 1 0.823224
0.998489 1 0.883528
0.999359 1 0.889952
0.831754 1 0.826444
0.832746 1 0.826154
0.85597 1 0.832135
0.997162 1 0.89543
0.998657 1 0.895933
0.0678874 0.209079 0.85948
0.187182 0.174319 0.870741
0.806638 0.130663 0.763073
1 0.664439 0.678828
1 0.670634 0.683009
0.098497 0.268894 0.822705
0.196521 0.239017 0.835416
0.807752 0.186786 0.764446
1 0.667506 0.680064
1 0.673777 0.684337
0.0371099 0.705455 0.698726
0.143252 0.705135 0.698711
0.679805 0.679789 0.679789
1 0.736675 0.719371
1 0.741009 0.723873
0.829953 1 0.844602
0.830594 1 0.844633
0.85304 1 0.853513
0.999283 1 0.901381
0.999786 1 0.91046
0.839338 1 0.852949
0.839933 1 0.85304
0.86067 1 0.861845
0.998199 1 0.909377
0.999298 1 0.914321
0.648463 0.706142 1
0.651499 0.706401 1
0.709392 0.715114 1
1 0.814908 0.982727
1 0.818692 0.981155
0.651362 0.710018 1
0.654353 0.710277 1
0.711223 0.7187 1
1 0.816999 0.98291
1 0.820645 0.981353
0.721614 0.788067 1
0.720333 0.785794 1
0.75404 0.788785 1
1 0.857374 0.988251
1 0.859312 0.986465
0.891539 1 0.998291
0.89221 1 0.998291
0.905516 1 0.998489
1 1 1
1 1 1
0.899489 1 0.997162
0.90016 1 0.997162
0.913298 1 0.997452
1 1 1
1 1 1
0.652354 0.709499 1
0.655314 0.709773 1
0.712001 0.719066 1
1 0.819135 0.985443
1 0.821408 0.983444
0.655634 0.713726 1
0.658152 0.713588 1
0.713848 0.722622 1
1 0.821286 0.985672
1 0.82356 0.983688
0.727886 0.792645 1
0.72694 0.790707 1
0.760006 0.79469 1
1 0.86276 0.990967
1 0.864744 0.989166
0.893385 1 0.999832
0.894102 1 0.999832
0.908141 1 0.999985
1 1 1
1 1 1
0.900511 1 0.998459
0.901198 1 0.998474
0.91458 1 0.998734
1 1 1
1 1 1
