ACES20_P3D65PQ1000D60_to_sRGBPW.cube
TITLE "Generated by Resolve"
LUT_3D_SIZE 5
0 0 0
0.24622 0.00521859 0.0110781
0.844831 0.0939803 0.131701
1 0.659892 0.624094
1 0.676387 0.64596
0.00474556 0.219883 0.0349279
0.216846 0.224216 0.00375372
0.857313 0.160479 0.0909895
1 0.66627 0.628977
1 0.682139 0.650523
0.0539254 0.718868 0.239612
0.0937514 0.726421 0.188922
0.69192 0.712093 0.107454
1 0.756359 0.695445
1 0.767224 0.719448
0.842008 1 0.845441
0.843076 1 0.845884
0.862104 1 0.853529
0.999573 1 0.93254
0.999237 1 0.9234
0.84831 1 0.855909
0.849622 1 0.856733
0.868894 1 0.868025
0.995315 1 0.925017
0.998581 1 0.930159
0.000869764 0.0585336 0.321386
0.242313 0.00753796 0.237598
0.850065 0.0821241 0.210788
1 0.659998 0.631388
1 0.67982 0.655222
0.00874342 0.220737 0.225589
0.213077 0.219455 0.229679
0.852583 0.163317 0.195346
1 0.663767 0.632593
1 0.684474 0.65716
0.0122835 0.718791 0.299855
0.107424 0.724117 0.259907
0.692531 0.711452 0.158846
1 0.754528 0.697581
1 0.769757 0.722759
0.842908 1 0.847578
0.844282 1 0.847761
0.863172 1 0.854444
0.999496 1 0.930465
0.999237 1 0.924697
0.849134 1 0.857527
0.85034 1 0.857847
0.869459 1 0.868315
0.995392 1 0.925917
0.998657 1 0.930907
0.0527504 0.229633 0.90312
0.151415 0.170642 0.929717
0.808789 0.13463 0.795697
1 0.675959 0.693736
1 0.697124 0.706752
0.0972457 0.274952 0.843671
0.172305 0.236347 0.877089
0.810224 0.185122 0.798611
1 0.679118 0.695033
1 0.702235 0.710643
0.0267033 0.709712 0.723842
0.124788 0.710109 0.724804
0.677501 0.687541 0.7037
1 0.748669 0.734081
1 0.766705 0.752544
0.854963 1 0.87097
0.855848 1 0.871366
0.875914 1 0.882628
0.997147 1 0.936522
0.999527 1 0.942321
0.892012 1 0.902312
0.892317 1 0.902571
0.893553 1 0.903456
0.996292 1 0.940063
0.999283 1 0.945953
0.64477 0.705226 1
0.647684 0.705455 1
0.704265 0.71368 1
1 0.827512 0.989776
1 0.83537 0.983703
0.647593 0.708675 1
0.650492 0.708919 1
0.706935 0.718105 1
1 0.830152 0.989914
1 0.837919 0.983902
0.731212 0.796201 1
0.731655 0.795438 1
0.76643 0.80264 1
1 0.882963 0.996582
1 0.892027 0.992676
0 0 0
0.902968 1 0.999359
0.917189 1 0.999619
1 1 1
1 1 1
0.907561 1 0.998444
0.908415 1 0.998459
0.922332 1 0.998749
1 1 1
1 1 1
0.64477 0.705226 1
0.647684 0.705455 1
0.704265 0.71368 1
1 0.827512 0.989776
1 0.83537 0.983703
0.647593 0.708675 1
0.650492 0.708919 1
0.706935 0.718105 1
1 0.830152 0.989914
1 0.837919 0.983902
0.731212 0.796201 1
0.731655 0.795438 1
0.76643 0.80264 1
1 0.882963 0.996582
1 0.892027 0.992676
0 0 0
0.902968 1 0.999359
0.917189 1 0.999619
1 1 1
1 1 1
0.907561 1 0.998444
0.908431 1 0.998459
0.922332 1 0.998749
1 1 1
1 1 1
