ACES20_P3D65PQ1000_to_sRGB22.cube
TITLE "Generated by Resolve"
LUT_3D_SIZE 33
0 0 0
0.0211948 0.00282292 0.00373846
0.0426795 0.00517281 0.007187
0.067277 0.00762951 0.0109102
0.0955673 0.0103761 0.0151217
0.128038 0.0136568 0.0199893
0.165133 0.0176699 0.0257115
0.207263 0.0226139 0.0324407
0.25478 0.0286564 0.0403449
0.307927 0.035874 0.0495155
0.366873 0.0442664 0.0599985
0.431708 0.0538033 0.0718395
0.502403 0.0644236 0.0849928
0.578851 0.0761425 0.0995041
0.660914 0.0890516 0.115373
0.748318 0.103334 0.132631
0.840665 0.118181 0.151186
0.938552 0.137148 0.173083
0.99733 0.226001 0.228855
1 0.316793 0.296132
1 0.392096 0.359869
1 0.459083 0.421134
1 0.522255 0.482155
1 0.585458 0.545892
1 0.654063 0.618433
1 0.670558 0.640177
1 0.670558 0.640177
1 0.670558 0.640177
1 0.670558 0.640177
1 0.670558 0.640177
1 0.670558 0.640177
1 0.670558 0.640177
1 0.670558 0.640177
0.00233463 0.0186618 0.00587472
0.0188449 0.0193942 0.00216678
0.0407874 0.0193179 0.00430304
0.066743 0.0165866 0.00614939
0.0961776 0.0128328 0.00967422
0.128405 0.0153506 0.0166323
0.165393 0.0188754 0.0233616
0.207446 0.0235294 0.0307164
0.254917 0.0293584 0.0390631
0.308034 0.0364233 0.0485389
0.366979 0.0447089 0.059266
0.431815 0.0541695 0.0712749
0.50248 0.064744 0.0845655
0.578927 0.0764172 0.0991684
0.66099 0.0892958 0.115129
0.748394 0.103548 0.132448
0.84065 0.118486 0.150988
0.938476 0.137545 0.1729
0.997253 0.226246 0.228733
1 0.316915 0.296056
1 0.392172 0.359838
1 0.459144 0.421134
1 0.522286 0.482155
1 0.585489 0.545907
1 0.654078 0.618433
1 0.670573 0.640192
1 0.670573 0.640192
1 0.670573 0.640192
1 0.670573 0.640192
1 0.670573 0.640192
1 0.670573 0.640192
1 0.670573 0.640192
1 0.670573 0.640192
0.00462348 0.0377661 0.011368
0.0152438 0.0388037 0.0043946
0.0380102 0.0391394 0.0040589
0.0626688 0.0395666 0.00595102
0.0921187 0.0387884 0.00854505
0.126436 0.0354314 0.0107881
0.16582 0.0285344 0.0133822
0.208621 0.0269932 0.0226139
0.255818 0.0320287 0.0337072
0.30869 0.0384985 0.0447242
0.367483 0.0463722 0.0564431
0.432212 0.0555428 0.0691386
0.502831 0.0659037 0.0829633
0.579232 0.077409 0.0979629
0.66125 0.0901808 0.114214
0.748638 0.104326 0.131777
0.840726 0.119402 0.150378
0.938247 0.138857 0.172274
0.996979 0.227085 0.228305
1 0.317357 0.295796
1 0.392477 0.359716
1 0.459342 0.421103
1 0.522438 0.482185
1 0.585595 0.545953
1 0.654169 0.618494
1 0.670665 0.640253
1 0.670665 0.640253
1 0.670665 0.640253
1 0.670665 0.640253
1 0.670665 0.640253
1 0.670665 0.640253
1 0.670665 0.640253
1 0.670665 0.640253
0.00715648 0.0598306 0.0175479
0.00939956 0.060853 0.0109407
0.0349737 0.0614176 0.00657664
0.0600595 0.0618448 0.00608835
0.0881666 0.0624857 0.00784314
0.121538 0.0623789 0.0110933
0.160571 0.0603952 0.0141909
0.205295 0.0551766 0.0175631
0.255879 0.0462348 0.0218662
0.310445 0.0426642 0.033341
0.368902 0.050248 0.0493019
0.43328 0.0586709 0.0640879
0.5037 0.0684977 0.0792706
0.579965 0.0796368 0.0952316
0.661891 0.0921187 0.112184
0.749172 0.10605 0.130282
0.84123 0.121004 0.14931
0.938155 0.141176 0.171237
0.996521 0.22884 0.227558
1 0.318318 0.295308
1 0.393103 0.359487
1 0.4598 0.421057
1 0.522774 0.482231
1 0.585855 0.546075
1 0.654383 0.618647
1 0.670863 0.640406
1 0.670863 0.640406
1 0.670863 0.640406
1 0.670863 0.640406
1 0.670863 0.640406
1 0.670863 0.640406
1 0.670863 0.640406
1 0.670863 0.640406
0.0099794 0.0854047 0.0247501
0.0113527 0.0860304 0.0209964
0.0287785 0.0872206 0.00926223
0.0569619 0.0875257 0.00901808
0.0854963 0.0880293 0.0083772
0.117601 0.088777 0.0102846
0.155383 0.0890211 0.0140841
0.199451 0.0876631 0.0183566
0.249928 0.0835431 0.0227054
0.306737 0.0752728 0.0281224
0.369863 0.0635538 0.0345464
0.435523 0.0643626 0.0522774
0.505501 0.073579 0.0715801
0.581399 0.0839094 0.0897841
0.663096 0.0958267 0.108263
0.750225 0.109285 0.127443
0.842191 0.123964 0.147311
0.938811 0.144228 0.16997
0.996109 0.231662 0.226825
1 0.319997 0.294743
1 0.394247 0.359228
1 0.460609 0.421042
1 0.523369 0.482368
1 0.586328 0.546304
1 0.65478 0.618952
1 0.671214 0.640681
1 0.671214 0.640681
1 0.671214 0.640681
1 0.671214 0.640681
1 0.671214 0.640681
1 0.671214 0.640681
1 0.671214 0.640681
1 0.671214 0.640681
0.0132448 0.114916 0.0331884
0.0142214 0.115328 0.0306706
0.0181888 0.116747 0.0171359
0.0514076 0.117205 0.0122683
0.0821241 0.11754 0.0119173
0.114702 0.11809 0.0111543
0.151278 0.118868 0.0133974
0.193942 0.119234 0.0178378
0.243473 0.118151 0.0233005
0.299992 0.114473 0.0289006
0.363317 0.106889 0.0354772
0.433234 0.094789 0.0432441
0.509163 0.0805524 0.052781
0.584085 0.0915084 0.0791638
0.665248 0.102342 0.101091
0.75201 0.114946 0.122423
0.843793 0.129091 0.143847
0.939941 0.149386 0.167926
0.996063 0.235737 0.22652
1 0.32253 0.294591
1 0.396063 0.359182
1 0.461967 0.421195
1 0.524392 0.482704
1 0.587137 0.546761
1 0.655436 0.61944
1 0.671809 0.641138
1 0.671809 0.641138
1 0.671809 0.641138
1 0.671809 0.641138
1 0.671809 0.641138
1 0.671809 0.641138
1 0.671809 0.641138
1 0.671809 0.641138
0.0171054 0.148745 0.0430762
0.0177768 0.14902 0.0412451
0.0205692 0.149996 0.033341
0.0406043 0.151232 0.0161593
0.076463 0.151461 0.0159304
0.110887 0.151797 0.0155032
0.147982 0.152361 0.0146181
0.189487 0.153079 0.0173953
0.237491 0.153399 0.0225528
0.292836 0.1523 0.0293278
0.355627 0.148638 0.0363622
0.42562 0.141131 0.0441596
0.502403 0.128573 0.0535439
0.585367 0.113649 0.0643778
0.669032 0.113069 0.0874037
0.75494 0.124483 0.113741
0.846357 0.137575 0.138109
0.941543 0.157931 0.164752
0.996002 0.242176 0.226078
1 0.326406 0.294713
1 0.398764 0.35964
1 0.464012 0.421836
1 0.525994 0.483452
1 0.588418 0.54757
1 0.656489 0.620233
1 0.672755 0.641886
1 0.672755 0.641886
1 0.672755 0.641886
1 0.672755 0.641886
1 0.672755 0.641886
1 0.672755 0.641886
1 0.672755 0.641886
1 0.672755 0.641886
0.0217746 0.187228 0.054612
0.0222477 0.187411 0.0532387
0.0242771 0.188083 0.0477455
0.0291905 0.189471 0.0312047
0.0665751 0.190066 0.0207828
0.104738 0.19028 0.0204776
0.143542 0.190585 0.0200046
0.185626 0.191119 0.0190585
0.232456 0.191638 0.0224308
0.286183 0.191699 0.0284886
0.347646 0.19028 0.0365148
0.416861 0.186236 0.0450599
0.493523 0.178347 0.0544137
0.577157 0.165362 0.0653544
0.666804 0.149813 0.0788128
0.760662 0.137911 0.0963607
0.850202 0.151263 0.128634
0.943496 0.171801 0.160159
0.99588 0.252003 0.225406
1 0.332387 0.294926
1 0.40293 0.360388
1 0.467124 0.422873
1 0.528435 0.484627
1 0.590387 0.548791
1 0.658076 0.621454
1 0.674189 0.643015
1 0.674189 0.643015
1 0.674189 0.64303
1 0.674189 0.64303
1 0.674189 0.643015
1 0.674189 0.643015
1 0.674189 0.643015
1 0.674189 0.643015
0.027451 0.230579 0.0680247
0.0277867 0.230701 0.0669718
0.0293126 0.231174 0.0629129
0.0328985 0.232166 0.0525063
0.0469368 0.233631 0.0266728
0.0946212 0.233722 0.0264744
0.136599 0.23386 0.0261387
0.18027 0.234089 0.0256199
0.227787 0.234531 0.0246738
0.280278 0.234668 0.0287327
0.340032 0.234211 0.0357519
0.407813 0.23212 0.0449683
0.483482 0.227344 0.0553445
0.56672 0.218677 0.0664988
0.656977 0.20528 0.0795148
0.75314 0.188632 0.0954147
0.853407 0.176776 0.115602
0.945586 0.192889 0.153307
0.995605 0.26656 0.224445
1 0.341344 0.295293
1 0.409155 0.361532
1 0.471763 0.42443
1 0.532036 0.486397
1 0.593286 0.550622
1 0.660426 0.62327
1 0.676295 0.644724
1 0.676295 0.644724
1 0.676295 0.644724
1 0.676295 0.644724
1 0.676295 0.644724
1 0.676295 0.644724
1 0.676295 0.644724
1 0.676295 0.644724
0.034165 0.278843 0.0834516
0.0344396 0.278935 0.0826276
0.0354925 0.279271 0.0795148
0.0381781 0.280003 0.0721141
0.0435187 0.281285 0.0550546
0.0768139 0.282261 0.0336461
0.125566 0.282261 0.0334173
0.172137 0.282292 0.0330663
0.221164 0.282368 0.0325322
0.274479 0.282612 0.0316777
0.332891 0.282124 0.0364691
0.39884 0.280812 0.0445869
0.472999 0.277699 0.055024
0.555123 0.271733 0.0670024
0.644694 0.262089 0.0806439
0.741054 0.248051 0.0962844
0.843534 0.231052 0.115358
0.944137 0.227436 0.146227
0.996262 0.285466 0.221088
1 0.354604 0.295888
1 0.418341 0.363256
1 0.478569 0.42678
1 0.537331 0.488991
1 0.597513 0.553307
1 0.663844 0.62591
1 0.679362 0.647196
1 0.679362 0.647196
1 0.679362 0.647196
1 0.679362 0.647196
1 0.679362 0.647196
1 0.679362 0.647196
1 0.679362 0.647196
1 0.679362 0.647196
0.0417792 0.331853 0.100954
0.0420844 0.33193 0.100313
0.0429236 0.332189 0.0979171
0.0449531 0.332738 0.0923629
0.0489509 0.33373 0.0808423
0.0564279 0.335286 0.0546883
0.107408 0.335698 0.0419623
0.159625 0.335592 0.0417334
0.211337 0.335424 0.041413
0.266072 0.335256 0.04094
0.325536 0.335164 0.0402686
0.38999 0.333761 0.0458076
0.462196 0.331212 0.0550546
0.542687 0.326696 0.0668193
0.631159 0.319219 0.0805524
0.726925 0.308019 0.0961013
0.829526 0.293202 0.114763
0.935225 0.279286 0.142138
0.994171 0.31458 0.217502
1 0.370703 0.293599
1 0.43154 0.365698
1 0.488426 0.430198
1 0.544915 0.49279
1 0.603571 0.557198
1 0.668742 0.629725
1 0.683696 0.650736
1 0.683696 0.650736
1 0.683696 0.650736
1 0.683696 0.650736
1 0.683696 0.650736
1 0.683696 0.650736
1 0.683696 0.650736
1 0.683696 0.650736
0.0497749 0.389319 0.120821
0.0501869 0.389334 0.120195
0.0513466 0.389456 0.11812
0.052842 0.389899 0.113848
0.0561074 0.390707 0.105501
0.0616007 0.392004 0.0890669
0.0732891 0.393866 0.0518349
0.139986 0.393652 0.0516823
0.196704 0.393347 0.0514992
0.253956 0.39292 0.0512551
0.314702 0.39237 0.0509346
0.380529 0.391791 0.0505531
0.451072 0.389105 0.0568399
0.529458 0.38497 0.0673381
0.616159 0.378698 0.0805982
0.710628 0.369406 0.0962692
0.812421 0.356771 0.114565
0.920134 0.34226 0.138643
0.988663 0.356939 0.21326
1 0.397498 0.293568
1 0.446525 0.364858
1 0.501564 0.43415
1 0.555703 0.498238
1 0.612146 0.562722
1 0.675593 0.635142
1 0.689754 0.655787
1 0.689754 0.655787
1 0.689754 0.655802
1 0.689754 0.655787
1 0.689754 0.655787
1 0.689754 0.655787
1 0.689754 0.655787
1 0.689754 0.655787
0.0577554 0.450568 0.143099
0.0581674 0.450568 0.142519
0.059556 0.450584 0.140505
0.0617533 0.450797 0.136767
0.0640574 0.451484 0.130388
0.0684672 0.452613 0.118791
0.0760052 0.454322 0.0967727
0.106676 0.455985 0.0629435
0.174716 0.455573 0.0628672
0.23653 0.454978 0.0627909
0.299596 0.45417 0.0626993
0.366552 0.453101 0.062623
0.438834 0.451804 0.0626383
0.515373 0.447501 0.0697032
0.599771 0.441428 0.08159
0.692409 0.433143 0.0966659
0.792737 0.421973 0.114687
0.899962 0.408438 0.137438
0.981186 0.409903 0.204883
1 0.435981 0.293614
1 0.47219 0.3682
1 0.516747 0.435889
1 0.568917 0.503792
1 0.624109 0.570611
1 0.685069 0.642618
1 0.698192 0.662669
1 0.698192 0.662669
1 0.698192 0.662669
1 0.698192 0.662669
1 0.698192 0.662669
1 0.698192 0.662669
1 0.698192 0.662669
1 0.698192 0.662669
0.0654612 0.514641 0.167559
0.0658579 0.514641 0.167025
0.0672465 0.514641 0.165164
0.0698863 0.514733 0.161501
0.0730297 0.515175 0.156039
0.0764172 0.516182 0.147417
0.0823682 0.517739 0.132326
0.0925002 0.520043 0.104234
0.140017 0.521416 0.0755016
0.21146 0.520714 0.0755474
0.278706 0.519738 0.075639
0.347738 0.518395 0.0757916
0.420905 0.516609 0.076051
0.49958 0.514321 0.0765698
0.581949 0.50811 0.0845197
0.672099 0.49987 0.098024
0.770489 0.489479 0.115434
0.876204 0.476768 0.137377
0.971954 0.468528 0.190097
1 0.484428 0.292012
1 0.508492 0.372641
1 0.541451 0.442161
1 0.584421 0.508263
1 0.637354 0.577874
1 0.6981 0.653071
1 0.709697 0.672358
1 0.709697 0.672358
1 0.709697 0.672358
1 0.709697 0.672358
1 0.709697 0.672358
1 0.709697 0.672358
1 0.709697 0.672358
1 0.709697 0.672358
0.0725872 0.580484 0.193729
0.0730144 0.580499 0.193271
0.0743572 0.58053 0.191653
0.0769818 0.580652 0.188296
0.0810864 0.580957 0.182925
0.085008 0.581765 0.175891
0.0898299 0.5832 0.164904
0.097734 0.585351 0.146197
0.110689 0.588434 0.111513
0.174197 0.589334 0.089601
0.249912 0.588235 0.0898451
0.322728 0.586709 0.0901656
0.397681 0.584649 0.0906233
0.476967 0.581903 0.09131
0.561776 0.578347 0.0923781
0.649699 0.569986 0.101305
0.745464 0.559548 0.117067
0.849241 0.547234 0.137957
0.956268 0.533684 0.170703
1 0.53901 0.286763
1 0.55404 0.377508
1 0.576257 0.450935
1 0.608621 0.517693
1 0.6533 0.585336
1 0.712566 0.663767
1 0.725338 0.685634
1 0.725338 0.685634
1 0.725338 0.685634
1 0.725338 0.685634
1 0.725338 0.685634
1 0.725338 0.685634
1 0.725338 0.685634
1 0.725338 0.685634
0.0785534 0.646998 0.220935
0.0789349 0.647013 0.220569
0.0803235 0.647105 0.219211
0.083238 0.647288 0.216403
0.0874647 0.647684 0.211536
0.0929274 0.648386 0.204715
0.0971084 0.649699 0.196551
0.103655 0.651682 0.18323
0.114015 0.654597 0.160922
0.130587 0.658701 0.119875
0.208667 0.658854 0.105119
0.289464 0.65716 0.105699
0.367956 0.654887 0.106432
0.448707 0.651865 0.107332
0.533806 0.647883 0.108492
0.624323 0.642741 0.110124
0.717449 0.632074 0.120241
0.818753 0.61976 0.139483
0.926757 0.60528 0.164691
0.994324 0.599222 0.273136
1 0.605615 0.381125
1 0.619547 0.461906
1 0.642344 0.531044
1 0.677195 0.598215
1 0.728161 0.673686
1 0.744411 0.701534
1 0.744411 0.701534
1 0.744411 0.701534
1 0.744411 0.701534
1 0.744411 0.701534
1 0.744411 0.701534
1 0.744411 0.701534
1 0.744411 0.701534
0.0839857 0.713146 0.248676
0.0843214 0.713191 0.248371
0.0855573 0.713314 0.247272
0.0881666 0.713603 0.244938
0.0926986 0.714092 0.240909
0.0988632 0.714916 0.234684
0.103761 0.716152 0.22771
0.109392 0.718013 0.217945
0.117998 0.720745 0.20238
0.131106 0.724651 0.176745
0.152361 0.729976 0.130404
0.243046 0.729122 0.122148
0.329244 0.726619 0.123095
0.413413 0.723293 0.124239
0.49987 0.718975 0.125765
0.590448 0.71342 0.127642
0.686107 0.70634 0.1299
0.784543 0.693858 0.142397
0.890318 0.679179 0.165347
0.983337 0.66479 0.240314
1 0.66247 0.379858
1 0.668452 0.473533
1 0.68365 0.547951
1 0.709834 0.616281
1 0.750927 0.689632
1 0.761898 0.713726
1 0.761898 0.713726
1 0.761898 0.713726
1 0.761898 0.713726
1 0.761898 0.713726
1 0.761898 0.713726
1 0.761898 0.713726
1 0.761898 0.713726
0.0916152 0.77995 0.277241
0.0918746 0.779995 0.277012
0.0928817 0.780133 0.276173
0.0950637 0.780453 0.274327
0.0990616 0.781018 0.271061
0.105379 0.781918 0.265934
0.112093 0.783185 0.259312
0.11667 0.784817 0.252003
0.123919 0.787198 0.240757
0.134783 0.790616 0.223148
0.15111 0.795377 0.19469
0.177478 0.801633 0.144778
0.278294 0.799527 0.142092
0.369696 0.796063 0.143496
0.459251 0.791485 0.145129
0.550866 0.785504 0.147097
0.646265 0.777844 0.14934
0.746136 0.768124 0.151736
0.849454 0.753826 0.167498
0.958221 0.736461 0.195819
1 0.723903 0.365301
1 0.721691 0.48275
1 0.729595 0.566812
1 0.748837 0.638636
1 0.781033 0.71107
1 0.786969 0.73283
1 0.786969 0.73283
1 0.786969 0.73283
1 0.786969 0.73283
1 0.786969 0.73283
1 0.786969 0.73283
1 0.786969 0.73283
1 0.786969 0.73283
0.102403 0.846403 0.305959
0.102663 0.846448 0.305791
0.103593 0.846571 0.305196
0.105379 0.846845 0.303822
0.108598 0.847364 0.30135
0.113924 0.848219 0.297307
0.121935 0.84947 0.29131
0.126543 0.850858 0.285603
0.13228 0.852872 0.277226
0.141283 0.855726 0.264683
0.154589 0.859693 0.24538
0.174456 0.865095 0.214878
0.2065 0.871885 0.16376
0.314412 0.86836 0.16527
0.41033 0.863706 0.167132
0.504601 0.857633 0.169314
0.600778 0.849836 0.171786
0.700389 0.839948 0.174548
0.803937 0.827604 0.177188
0.910582 0.810651 0.195895
0.993301 0.790448 0.318059
1 0.77821 0.482948
1 0.7785 0.584756
1 0.790967 0.663325
1 0.816312 0.736858
1 0.819226 0.757992
1 0.819226 0.757992
1 0.819226 0.757992
1 0.819226 0.757992
1 0.819226 0.757992
1 0.819226 0.757992
1 0.819226 0.757992
1 0.819226 0.757992
0.117647 0.911513 0.334432
0.117845 0.911543 0.33431
0.118578 0.911635 0.333867
0.12015 0.911849 0.332921
0.123018 0.912245 0.331167
0.12723 0.912917 0.328191
0.133761 0.91397 0.323613
0.139544 0.915206 0.318578
0.144762 0.916793 0.312474
0.151751 0.919081 0.303197
0.162646 0.922255 0.289616
0.17847 0.926574 0.269139
0.202152 0.93225 0.237659
0.243 0.938552 0.190463
0.351919 0.933959 0.192416
0.451072 0.927947 0.194797
0.549004 0.920195 0.197528
0.648722 0.910369 0.200504
0.751507 0.898085 0.203632
0.85774 0.882963 0.206119
0.966476 0.863203 0.228626
1 0.838453 0.460456
1 0.828916 0.596658
1 0.834195 0.687709
1 0.852705 0.764263
1 0.854902 0.78677
1 0.854902 0.78677
1 0.854902 0.78677
1 0.854902 0.78677
1 0.854902 0.78677
1 0.854902 0.78677
1 0.854902 0.78677
1 0.854902 0.78677
0.140047 0.974136 0.362753
0.1402 0.974151 0.362676
0.14078 0.974212 0.362371
0.142046 0.974365 0.361715
0.144366 0.974609 0.360525
0.148257 0.975036 0.358557
0.153964 0.975723 0.355413
0.160418 0.976623 0.351507
0.165759 0.977691 0.347387
0.174243 0.979171 0.341421
0.186648 0.98117 0.332921
0.206699 0.983551 0.321675
0.237507 0.986038 0.307622
0.282841 0.987945 0.291737
0.342901 0.988602 0.275181
0.419455 0.986679 0.263935
0.502083 0.983307 0.249332
0.593698 0.976867 0.236118
0.694194 0.965728 0.234455
0.798856 0.951019 0.237781
0.906554 0.933181 0.239628
0.995209 0.906188 0.372305
1 0.881102 0.593591
1 0.877012 0.708202
1 0.888289 0.791226
1 0.889677 0.816083
1 0.889677 0.816083
1 0.889677 0.816083
1 0.889677 0.816083
1 0.889677 0.816083
1 0.889677 0.816083
1 0.889677 0.816083
1 0.889677 0.816083
0.377234 1 0.465736
0.377325 1 0.465721
0.377646 1 0.46566
0.378347 1 0.465522
0.379614 1 0.465293
0.381765 1 0.464897
0.385092 1 0.464286
0.38938 1 0.463493
0.393515 1 0.462821
0.399558 1 0.46186
0.408164 1 0.460487
0.419715 1 0.458351
0.43534 1 0.45539
0.455436 1 0.451072
0.481056 1 0.444739
0.513878 1 0.436057
0.560739 1 0.430869
0.615686 1 0.421775
0.679561 1 0.405478
0.754192 0.998352 0.375601
0.843427 0.993149 0.319768
0.949615 0.977447 0.279606
1 0.938704 0.548379
1 0.919585 0.7205
1 0.921981 0.816297
1 0.922087 0.845182
1 0.922087 0.845182
1 0.922087 0.845182
1 0.922087 0.845182
1 0.922087 0.845182
1 0.922087 0.845182
1 0.922087 0.845182
1 0.922087 0.845182
0.56257 1 0.591562
0.5626 1 0.591546
0.562707 1 0.591516
0.562951 1 0.591455
0.563394 1 0.591333
0.564141 1 0.591119
0.565316 1 0.590814
0.566857 1 0.590524
0.568689 1 0.590356
0.571313 1 0.590097
0.575113 1 0.589715
0.580499 1 0.589197
0.587884 1 0.588342
0.59794 1 0.587121
0.611109 1 0.58526
0.628153 1 0.582437
0.650462 1 0.578653
0.683436 1 0.579004
0.722911 1 0.577752
0.769482 1 0.572946
0.824262 1 0.56054
0.890181 1 0.530968
0.976196 1 0.456168
1 0.964111 0.711421
1 0.95378 0.839628
1 0.951568 0.875807
1 0.951568 0.875807
1 0.951568 0.875807
1 0.951568 0.875807
1 0.951568 0.875807
1 0.951568 0.875807
1 0.951568 0.875807
1 0.951568 0.875807
0.707271 1 0.712322
0.707286 1 0.712322
0.707332 1 0.712306
0.707424 1 0.712276
0.707591 1 0.712215
0.707866 1 0.712108
0.708324 1 0.712001
0.708965 1 0.712062
0.709926 1 0.712154
0.71133 1 0.712291
0.713283 1 0.712444
0.716045 1 0.712657
0.719951 1 0.712993
0.725307 1 0.713344
0.732616 1 0.713787
0.742168 1 0.714229
0.754498 1 0.714626
0.770459 1 0.715084
0.793637 1 0.719509
0.821256 1 0.724056
0.853513 1 0.727947
0.890776 1 0.729503
0.934051 1 0.724849
0.987594 1 0.702449
1 0.983597 0.860639
1 0.976974 0.915923
1 0.976974 0.915923
1 0.976974 0.915923
1 0.976974 0.915923
1 0.976974 0.915923
1 0.976974 0.915923
1 0.976974 0.915923
1 0.976974 0.915923
0.837797 1 0.841291
0.837797 1 0.841291
0.837812 1 0.841306
0.837842 1 0.841321
0.837919 1 0.841352
0.838026 1 0.841398
0.838209 1 0.841474
0.838483 1 0.841581
0.838895 1 0.841749
0.839475 1 0.841993
0.840299 1 0.842344
0.841459 1 0.842817
0.843076 1 0.843488
0.845304 1 0.844388
0.848356 1 0.845609
0.852567 1 0.847318
0.858305 1 0.849546
0.866148 1 0.852522
0.876692 1 0.856367
0.889754 1 0.861173
0.90724 1 0.869734
0.927169 1 0.880217
0.949142 1 0.89305
0.972793 1 0.909026
0.999557 1 0.930449
0.999207 1 0.92105
0.999207 1 0.92105
0.999207 1 0.92105
0.999207 1 0.92105
0.999207 1 0.92105
0.999207 1 0.92105
0.999207 1 0.92105
0.999207 1 0.92105
0.844221 1 0.851972
0.844221 1 0.851972
0.844251 1 0.851987
0.844297 1 0.852018
0.844373 1 0.852064
0.844511 1 0.852155
0.844739 1 0.852293
0.84506 1 0.852491
0.845563 1 0.852811
0.846265 1 0.853254
0.847257 1 0.85388
0.848661 1 0.854765
0.850599 1 0.855985
0.853254 1 0.857679
0.856855 1 0.859953
0.860471 1 0.861875
0.865232 1 0.864332
0.871733 1 0.867674
0.880598 1 0.872221
0.892653 1 0.87834
0.908293 1 0.886519
0.927901 1 0.899092
0.949874 1 0.915343
0.97406 1 0.935286
0.995163 1 0.922728
0.998535 1 0.928008
0.998535 1 0.928008
0.998535 1 0.928008
0.998535 1 0.928008
0.998535 1 0.928008
0.998535 1 0.928008
0.998535 1 0.928008
0.998535 1 0.928008
0.844221 1 0.851972
0.844221 1 0.851972
0.844251 1 0.851987
0.844297 1 0.852018
0.844373 1 0.852064
0.844511 1 0.852155
0.844739 1 0.852293
0.84506 1 0.852491
0.845563 1 0.852811
0.846265 1 0.853254
0.847257 1 0.85388
0.848661 1 0.854765
0.850599 1 0.855985
0.853254 1 0.857679
0.856855 1 0.859953
0.860471 1 0.861875
0.865232 1 0.864332
0.871733 1 0.867674
0.880598 1 0.872221
0.892653 1 0.87834
0.908293 1 0.886519
0.927901 1 0.899092
0.949874 1 0.915343
0.97406 1 0.935286
0.995163 1 0.922728
0.998535 1 0.928008
0.998535 1 0.928008
0.998535 1 0.928008
0.998535 1 0.928008
0.998535 1 0.928008
0.998535 1 0.928008
0.998535 1 0.928008
0.998535 1 0.928008
0.844221 1 0.851972
0.844221 1 0.851972
0.844251 1 0.851987
0.844297 1 0.852018
0.844373 1 0.852064
0.844511 1 0.852155
0.844739 1 0.852293
0.84506 1 0.852491
0.845563 1 0.852811
